;FLAVOR:Marlin
;TIME:2920
;Filament used: 2.50212m
;Layer height: 0.15
;MINX:64.417
;MINY:65.359
;MINZ:0.3
;MAXX:125.583
;MAXY:154.641
;MAXZ:1.95
;Generated with Cura_SteamEngine 4.7.1
M140 S70
M105
M190 S70
M104 S240
M105
M109 S240
M82 ;absolute extrusion mode
;Sliced at: Sat 07-11-2020 00:53:23
;Basic settings: Layer height: 0.15 Walls: 0.8 Fill: {fill_density} ;Print time: 00:48:40
;Filament used: [2.5]m [8.30525912109375]g
;Filament cost: [0.20763147802734375]
;M190 S70.0 ;Uncomment to add your own bed temperature line ;M109 S240.0 ;Uncomment to add your own temperature line
G21 ;metric values
G90 ;absolute positioning
M82 ;set extruder to absolute mode
M107 ;start with the fan off
G28 X0 Y0 ;move X/Y to min endstops
G28 Z0 ;move Z to min endstops
G1 Z15.0 F170 ;move the platform down 15mm
G92 E0 ;zero the extruded length
G1 F200 E3 ;extrude 3mm of feed stock
G92 E0 ;zero extrudeed length again
G1 F170
;Put printing message on LCD screen
M117 Printing...
G92 E0
G92 E0
G1 F1500 E-4
;LAYER_COUNT:12
;LAYER:0
M107
G0 F5100 X66.499 Y67.392 Z0.3
;TYPE:SKIRT
G1 F1500 E0
G1 F1800 X66.847 Y67.07 E0.02365
G1 X67.337 Y66.671 E0.05518
G1 X67.788 Y66.384 E0.08185
G1 X68.196 Y66.154 E0.10522
G1 X68.765 Y65.879 E0.13675
G1 X69.306 Y65.694 E0.16527
G1 X69.757 Y65.568 E0.18863
G1 X70.375 Y65.437 E0.22015
G1 X71.024 Y65.375 E0.25268
G1 X71.418 Y65.359 E0.27235
G1 X88.582 Y65.359 E1.12866
G1 X89.166 Y65.393 E1.15785
G1 X89.634 Y65.448 E1.18136
G1 X90.255 Y65.561 E1.21285
G1 X90.783 Y65.724 E1.24042
G1 X91.224 Y65.887 E1.26387
G1 X91.802 Y66.143 E1.29541
G1 X92.269 Y66.42 E1.3225
G1 X92.658 Y66.68 E1.34584
G1 X93.161 Y67.064 E1.37742
G1 X93.555 Y67.446 E1.4048
G1 X93.877 Y67.795 E1.42849
G1 X94.275 Y68.286 E1.46002
G1 X94.558 Y68.731 E1.48633
G1 X95.004 Y69.585 E1.5344
G1 X95.203 Y69.137 E1.55885
G1 X95.478 Y68.673 E1.58576
G1 X95.738 Y68.284 E1.6091
G1 X96.122 Y67.781 E1.64068
G1 X96.499 Y67.392 E1.6677
G1 X96.847 Y67.07 E1.69136
G1 X97.337 Y66.671 E1.72288
G1 X97.788 Y66.384 E1.74955
G1 X98.196 Y66.154 E1.77292
G1 X98.765 Y65.879 E1.80445
G1 X99.306 Y65.694 E1.83297
G1 X99.757 Y65.568 E1.85634
G1 X100.375 Y65.437 E1.88785
G1 X101.024 Y65.375 E1.92038
G1 X101.418 Y65.359 E1.94005
G1 X118.582 Y65.359 E2.79637
G1 X119.166 Y65.393 E2.82555
G1 X119.634 Y65.448 E2.84906
G1 X120.255 Y65.561 E2.88055
G1 X120.783 Y65.724 E2.90812
G1 X121.224 Y65.887 E2.93158
G1 X121.802 Y66.143 E2.96312
G1 X122.269 Y66.42 E2.9902
G1 X122.658 Y66.68 E3.01355
G1 X123.161 Y67.064 E3.04512
G1 X123.555 Y67.446 E3.0725
G1 X123.877 Y67.795 E3.09619
G1 X124.275 Y68.286 E3.12772
G1 X124.558 Y68.731 E3.15403
G1 X124.788 Y69.139 E3.1774
G1 X125.063 Y69.708 E3.20893
G1 X125.244 Y70.236 E3.23677
G1 X125.371 Y70.686 E3.2601
G1 X125.504 Y71.304 E3.29164
G1 X125.568 Y71.977 E3.32537
G1 X125.583 Y72.358 E3.34439
G1 X125.583 Y87.453 E4.09748
G1 X125.552 Y88.202 E4.13488
G1 X125.488 Y88.785 E4.16414
G1 X125.376 Y89.448 E4.19769
G1 X125.244 Y90.022 E4.22707
G1 X125.103 Y90.503 E4.25208
G1 X124.938 Y90.975 E4.27703
G1 X124.749 Y91.441 E4.30211
G1 X124.522 Y91.926 E4.32883
G1 X124.251 Y92.431 E4.35742
G1 X123.971 Y92.891 E4.38429
G1 X123.687 Y93.306 E4.40938
G1 X123.32 Y93.779 E4.43925
G1 X122.878 Y94.283 E4.47269
G1 X122.555 Y94.611 E4.49566
G1 X122.658 Y94.68 E4.50184
G1 X123.161 Y95.064 E4.53341
G1 X123.555 Y95.446 E4.56079
G1 X123.877 Y95.795 E4.58448
G1 X124.275 Y96.286 E4.61602
G1 X124.558 Y96.731 E4.64233
G1 X124.788 Y97.139 E4.66569
G1 X125.063 Y97.708 E4.69722
G1 X125.244 Y98.236 E4.72507
G1 X125.371 Y98.686 E4.7484
G1 X125.504 Y99.304 E4.77994
G1 X125.568 Y99.977 E4.81366
G1 X125.583 Y100.358 E4.83269
G1 X125.583 Y115.453 E5.58578
G1 X125.552 Y116.202 E5.62318
G1 X125.488 Y116.785 E5.65244
G1 X125.376 Y117.448 E5.68599
G1 X125.244 Y118.022 E5.71537
G1 X125.103 Y118.503 E5.74038
G1 X124.938 Y118.975 E5.76532
G1 X124.749 Y119.441 E5.79041
G1 X124.522 Y119.926 E5.81713
G1 X124.251 Y120.431 E5.84572
G1 X123.971 Y120.891 E5.87259
G1 X123.687 Y121.306 E5.89767
G1 X123.32 Y121.779 E5.92754
G1 X122.878 Y122.283 E5.96099
G1 X122.555 Y122.611 E5.98395
G1 X122.658 Y122.68 E5.99014
G1 X123.161 Y123.064 E6.02171
G1 X123.555 Y123.446 E6.04909
G1 X123.877 Y123.795 E6.07278
G1 X124.275 Y124.286 E6.10431
G1 X124.558 Y124.731 E6.13062
G1 X124.788 Y125.139 E6.15399
G1 X125.063 Y125.708 E6.18552
G1 X125.244 Y126.236 E6.21337
G1 X125.371 Y126.686 E6.23669
G1 X125.504 Y127.304 E6.26823
G1 X125.568 Y127.977 E6.30196
G1 X125.583 Y128.358 E6.32098
G1 X125.583 Y143.453 E7.07407
G1 X125.552 Y144.202 E7.11147
G1 X125.488 Y144.785 E7.14073
G1 X125.376 Y145.448 E7.17428
G1 X125.244 Y146.022 E7.20367
G1 X125.103 Y146.503 E7.22867
G1 X124.938 Y146.975 E7.25362
G1 X124.749 Y147.441 E7.27871
G1 X124.522 Y147.926 E7.30542
G1 X124.251 Y148.431 E7.33401
G1 X123.971 Y148.891 E7.36088
G1 X123.687 Y149.306 E7.38597
G1 X123.32 Y149.779 E7.41584
G1 X122.878 Y150.283 E7.44928
G1 X122.481 Y150.687 E7.47754
G1 X122.11 Y151.024 E7.50255
G1 X121.711 Y151.35 E7.52825
G1 X121.306 Y151.648 E7.55334
G1 X120.867 Y151.937 E7.57956
G1 X120.371 Y152.227 E7.60822
G1 X119.845 Y152.498 E7.63774
G1 X119.687 Y152.57 E7.64641
G1 X119.182 Y152.79 E7.67389
G1 X118.998 Y152.866 E7.68382
G1 X118.245 Y153.159 E7.72413
G1 X118.093 Y153.215 E7.73221
G1 X117.508 Y153.421 E7.76316
G1 X117.296 Y153.491 E7.77429
G1 X116.523 Y153.725 E7.81459
G1 X116.361 Y153.771 E7.82299
G1 X115.764 Y153.93 E7.85381
G1 X115.558 Y153.98 E7.86439
G1 X114.768 Y154.155 E7.90476
G1 X114.607 Y154.188 E7.91296
G1 X113.998 Y154.302 E7.94387
G1 X113.784 Y154.337 E7.95469
G1 X112.985 Y154.451 E7.99495
G1 X112.819 Y154.472 E8.0033
G1 X112.202 Y154.539 E8.03426
G1 X111.99 Y154.557 E8.04488
G1 X111.185 Y154.61 E8.08513
G1 X111.018 Y154.618 E8.09347
G1 X110.399 Y154.638 E8.12436
G1 X110.195 Y154.641 E8.13454
G1 X109.387 Y154.634 E8.17486
G1 X109.196 Y154.629 E8.18439
G1 X108.578 Y154.6 E8.21525
G1 X108.379 Y154.586 E8.22521
G1 X107.574 Y154.516 E8.26552
G1 X107.401 Y154.498 E8.2742
G1 X106.787 Y154.423 E8.30506
G1 X106.583 Y154.394 E8.31534
G1 X105.785 Y154.263 E8.35568
G1 X105.611 Y154.231 E8.36451
G1 X105.003 Y154.109 E8.39545
G1 X104.804 Y154.065 E8.40562
G1 X104.02 Y153.874 E8.44587
G1 X103.844 Y153.828 E8.45495
G1 X103.249 Y153.66 E8.48579
G1 X103.057 Y153.601 E8.49582
G1 X102.288 Y153.35 E8.53617
G1 X102.123 Y153.293 E8.54488
G1 X101.54 Y153.08 E8.57585
G1 X101.344 Y153.004 E8.58634
G1 X100.6 Y152.696 E8.62651
G1 X100.343 Y152.581 E8.64056
G1 X99.83 Y152.334 E8.66896
G1 X99.349 Y152.069 E8.69636
G1 X98.925 Y151.804 E8.72131
G1 X98.141 Y151.232 E8.76972
G1 X97.75 Y150.9 E8.79531
G1 X97.385 Y150.556 E8.82034
G1 X97.042 Y150.2 E8.845
G1 X96.713 Y149.822 E8.87
G1 X96.389 Y149.406 E8.89631
G1 X96.06 Y148.936 E8.92493
G1 X95.721 Y148.379 E8.95746
G1 X95.409 Y147.78 E8.99116
G1 X95.175 Y147.26 E9.01961
G1 X94.999 Y146.801 E9.04413
G1 X94.938 Y146.975 E9.05333
G1 X94.749 Y147.441 E9.07842
G1 X94.522 Y147.926 E9.10513
G1 X94.251 Y148.431 E9.13373
G1 X93.971 Y148.891 E9.16059
G1 X93.687 Y149.306 E9.18568
G1 X93.32 Y149.779 E9.21555
G1 X92.878 Y150.283 E9.24899
G1 X92.481 Y150.687 E9.27725
G1 X92.11 Y151.024 E9.30226
G1 X91.711 Y151.35 E9.32796
G1 X91.306 Y151.648 E9.35305
G1 X90.867 Y151.937 E9.37927
G1 X90.371 Y152.227 E9.40794
G1 X89.845 Y152.498 E9.43746
G1 X89.687 Y152.57 E9.44612
G1 X89.182 Y152.79 E9.4736
G1 X88.998 Y152.866 E9.48353
G1 X88.245 Y153.159 E9.52384
G1 X88.093 Y153.215 E9.53193
G1 X87.508 Y153.421 E9.56287
G1 X87.296 Y153.491 E9.57401
G1 X86.523 Y153.725 E9.6143
G1 X86.361 Y153.771 E9.6227
G1 X85.764 Y153.93 E9.65352
G1 X85.558 Y153.98 E9.6641
G1 X84.768 Y154.155 E9.70447
G1 X84.607 Y154.188 E9.71267
G1 X83.998 Y154.302 E9.74358
G1 X83.784 Y154.337 E9.7544
G1 X82.985 Y154.451 E9.79466
G1 X82.819 Y154.472 E9.80301
G1 X82.202 Y154.539 E9.83397
G1 X81.99 Y154.557 E9.84459
G1 X81.185 Y154.61 E9.88484
G1 X81.018 Y154.618 E9.89318
G1 X80.399 Y154.638 E9.92408
G1 X80.195 Y154.641 E9.93426
G1 X79.387 Y154.634 E9.97457
G1 X79.196 Y154.629 E9.9841
G1 X78.578 Y154.6 E10.01497
G1 X78.379 Y154.586 E10.02492
G1 X77.574 Y154.516 E10.06523
G1 X77.401 Y154.498 E10.07391
G1 X76.787 Y154.423 E10.10477
G1 X76.583 Y154.394 E10.11505
G1 X75.785 Y154.263 E10.1554
G1 X75.611 Y154.231 E10.16422
G1 X75.003 Y154.109 E10.19516
G1 X74.804 Y154.065 E10.20533
G1 X74.02 Y153.874 E10.24559
G1 X73.844 Y153.828 E10.25466
G1 X73.249 Y153.66 E10.28551
G1 X73.057 Y153.601 E10.29553
G1 X72.288 Y153.35 E10.33588
G1 X72.123 Y153.293 E10.34459
G1 X71.54 Y153.08 E10.37556
G1 X71.344 Y153.004 E10.38605
G1 X70.6 Y152.696 E10.42622
G1 X70.343 Y152.581 E10.44027
G1 X69.83 Y152.334 E10.46867
G1 X69.349 Y152.069 E10.49607
G1 X68.925 Y151.804 E10.52102
G1 X68.141 Y151.232 E10.56944
G1 X67.75 Y150.9 E10.59503
G1 X67.385 Y150.556 E10.62005
G1 X67.042 Y150.2 E10.64471
G1 X66.713 Y149.822 E10.66971
G1 X66.389 Y149.406 E10.69602
G1 X66.06 Y148.936 E10.72464
G1 X65.721 Y148.379 E10.75717
G1 X65.409 Y147.78 E10.79087
G1 X65.175 Y147.26 E10.81932
G1 X64.996 Y146.793 E10.84427
G1 X64.841 Y146.317 E10.86924
G1 X64.71 Y145.836 E10.89411
G1 X64.598 Y145.319 E10.92051
G1 X64.506 Y144.749 E10.94931
G1 X64.448 Y144.202 E10.97675
G1 X64.417 Y143.453 E11.01415
G1 X64.417 Y128.36 E11.76715
G1 X64.45 Y127.784 E11.79593
G1 X64.504 Y127.318 E11.81934
G1 X64.617 Y126.696 E11.85088
G1 X64.782 Y126.158 E11.87895
G1 X64.946 Y125.715 E11.90252
G1 X65.203 Y125.137 E11.93408
G1 X65.478 Y124.673 E11.96099
G1 X65.738 Y124.284 E11.98433
G1 X66.122 Y123.781 E12.0159
G1 X66.499 Y123.392 E12.04293
G1 X66.847 Y123.07 E12.06658
G1 X67.337 Y122.671 E12.09811
G1 X67.438 Y122.606 E12.1041
G1 X67.042 Y122.2 E12.13239
G1 X66.713 Y121.822 E12.15739
G1 X66.389 Y121.406 E12.1837
G1 X66.06 Y120.936 E12.21232
G1 X65.721 Y120.379 E12.24485
G1 X65.409 Y119.78 E12.27855
G1 X65.175 Y119.26 E12.307
G1 X64.996 Y118.793 E12.33195
G1 X64.841 Y118.317 E12.35692
G1 X64.71 Y117.836 E12.3818
G1 X64.598 Y117.319 E12.40819
G1 X64.506 Y116.749 E12.43699
G1 X64.448 Y116.202 E12.46444
G1 X64.417 Y115.453 E12.50183
G1 X64.417 Y100.36 E13.25483
G1 X64.45 Y99.784 E13.28361
G1 X64.504 Y99.318 E13.30702
G1 X64.617 Y98.696 E13.33856
G1 X64.782 Y98.158 E13.36663
G1 X64.946 Y97.715 E13.3902
G1 X65.203 Y97.137 E13.42176
G1 X65.478 Y96.673 E13.44867
G1 X65.738 Y96.284 E13.47201
G1 X66.122 Y95.781 E13.50358
G1 X66.499 Y95.392 E13.53061
G1 X66.847 Y95.07 E13.55426
G1 X67.337 Y94.671 E13.58579
G1 X67.438 Y94.607 E13.59175
G1 X67.281 Y94.454 E13.60269
G1 X66.875 Y94.01 E13.6327
G1 X66.45 Y93.485 E13.6664
G1 X66.104 Y93.001 E13.69609
G1 X65.797 Y92.513 E13.72485
G1 X65.525 Y92.023 E13.75281
G1 X65.117 Y91.119 E13.80229
G1 X64.945 Y90.649 E13.82726
G1 X64.795 Y90.165 E13.85254
G1 X64.672 Y89.682 E13.87741
G1 X64.559 Y89.092 E13.90738
G1 X64.472 Y88.422 E13.94108
G1 X64.421 Y87.653 E13.97953
G1 X64.417 Y87.453 E13.98951
G1 X64.417 Y72.36 E14.74251
G1 X64.45 Y71.784 E14.77129
G1 X64.504 Y71.318 E14.79469
G1 X64.617 Y70.696 E14.82623
G1 X64.782 Y70.158 E14.85431
G1 X64.946 Y69.715 E14.87788
G1 X65.203 Y69.137 E14.90943
G1 X65.478 Y68.673 E14.93634
G1 X65.738 Y68.284 E14.95969
G1 X66.122 Y67.781 E14.99126
G1 X66.499 Y67.392 E15.01828
G0 F5100 X67.119 Y67.364
G1 F1800 X67.59 Y66.982 E15.04854
G1 X68.392 Y66.503 E15.09515
G1 X68.939 Y66.241 E15.1254
G1 X69.413 Y66.08 E15.15038
G1 X69.864 Y65.954 E15.17374
G1 X70.739 Y65.798 E15.21808
G1 X71.418 Y65.759 E15.25201
G1 X88.582 Y65.759 E16.10833
G1 X89.119 Y65.79 E16.13517
G1 X89.587 Y65.845 E16.15868
G1 X90.183 Y65.956 E16.18892
G1 X91.086 Y66.262 E16.23649
G1 X91.639 Y66.51 E16.26672
G1 X92.436 Y67.013 E16.31374
G1 X92.917 Y67.382 E16.34399
G1 X93.583 Y68.067 E16.39165
G1 X93.964 Y68.538 E16.42188
G1 X94.439 Y69.335 E16.46817
G1 X94.701 Y69.882 E16.49843
G1 X94.986 Y70.795 E16.54614
G1 X94.997 Y70.846 E16.54875
G1 X95.157 Y70.297 E16.57728
G1 X95.321 Y69.854 E16.60084
G1 X95.569 Y69.301 E16.63108
G1 X96.071 Y68.506 E16.67799
G1 X96.44 Y68.025 E16.70823
G1 X97.119 Y67.364 E16.75551
G1 X97.59 Y66.982 E16.78576
G1 X98.392 Y66.503 E16.83237
G1 X98.939 Y66.241 E16.86263
G1 X99.413 Y66.08 E16.8876
G1 X99.864 Y65.954 E16.91096
G1 X100.739 Y65.798 E16.95531
G1 X101.418 Y65.759 E16.98924
G1 X118.582 Y65.759 E17.84555
G1 X119.119 Y65.79 E17.87239
G1 X119.587 Y65.845 E17.8959
G1 X120.183 Y65.956 E17.92614
G1 X121.086 Y66.262 E17.97371
G1 X121.639 Y66.51 E18.00395
G1 X122.436 Y67.013 E18.05097
G1 X122.917 Y67.382 E18.08121
G1 X123.583 Y68.067 E18.12888
G1 X123.964 Y68.538 E18.1591
G1 X124.439 Y69.335 E18.20539
G1 X124.701 Y69.882 E18.23565
G1 X124.986 Y70.795 E18.28337
G1 X125.112 Y71.388 E18.31361
G1 X125.17 Y72.007 E18.34463
G1 X125.183 Y72.358 E18.36215
G1 X125.183 Y87.453 E19.11525
G1 X125.152 Y88.182 E19.15165
G1 X125.094 Y88.718 E19.17855
G1 X124.982 Y89.381 E19.21209
G1 X124.86 Y89.909 E19.23913
G1 X124.719 Y90.39 E19.26413
G1 X124.568 Y90.825 E19.28711
G1 X124.379 Y91.291 E19.3122
G1 X124.169 Y91.737 E19.33679
G1 X123.898 Y92.242 E19.36538
G1 X123.641 Y92.665 E19.39008
G1 X123.357 Y93.08 E19.41516
G1 X123.019 Y93.515 E19.44265
G1 X122.577 Y94.019 E19.47609
G1 X122.212 Y94.391 E19.50209
G1 X121.906 Y94.669 E19.52272
G1 X122.436 Y95.013 E19.55424
G1 X122.917 Y95.382 E19.58449
G1 X123.583 Y96.067 E19.63215
G1 X123.964 Y96.538 E19.66238
G1 X124.439 Y97.335 E19.70866
G1 X124.701 Y97.882 E19.73892
G1 X124.986 Y98.795 E19.78664
G1 X125.112 Y99.388 E19.81689
G1 X125.17 Y100.007 E19.8479
G1 X125.183 Y100.358 E19.86543
G1 X125.183 Y115.453 E20.61852
G1 X125.152 Y116.182 E20.65492
G1 X125.094 Y116.718 E20.68182
G1 X124.982 Y117.381 E20.71537
G1 X124.86 Y117.909 E20.7424
G1 X124.719 Y118.39 E20.76741
G1 X124.568 Y118.825 E20.79038
G1 X124.379 Y119.291 E20.81547
G1 X124.169 Y119.737 E20.84006
G1 X123.898 Y120.242 E20.86866
G1 X123.641 Y120.665 E20.89335
G1 X123.357 Y121.08 E20.91844
G1 X123.019 Y121.515 E20.94592
G1 X122.577 Y122.019 E20.97937
G1 X122.212 Y122.391 E21.00537
G1 X121.906 Y122.669 E21.02599
G1 X122.436 Y123.013 E21.05752
G1 X122.917 Y123.382 E21.08776
G1 X123.583 Y124.067 E21.13543
G1 X123.964 Y124.538 E21.16565
G1 X124.439 Y125.335 E21.21194
G1 X124.701 Y125.882 E21.2422
G1 X124.986 Y126.795 E21.28991
G1 X125.112 Y127.388 E21.32016
G1 X125.17 Y128.007 E21.35118
G1 X125.183 Y128.358 E21.3687
G1 X125.183 Y143.453 E22.12179
G1 X125.152 Y144.182 E22.1582
G1 X125.094 Y144.718 E22.18509
G1 X124.982 Y145.381 E22.21864
G1 X124.86 Y145.909 E22.24568
G1 X124.719 Y146.39 E22.27068
G1 X124.568 Y146.825 E22.29366
G1 X124.379 Y147.291 E22.31874
G1 X124.169 Y147.737 E22.34334
G1 X123.898 Y148.242 E22.37193
G1 X123.641 Y148.665 E22.39662
G1 X123.357 Y149.08 E22.42171
G1 X123.019 Y149.515 E22.4492
G1 X122.577 Y150.019 E22.48264
G1 X122.212 Y150.391 E22.50864
G1 X121.841 Y150.728 E22.53365
G1 X121.474 Y151.028 E22.5573
G1 X121.069 Y151.326 E22.58238
G1 X120.665 Y151.592 E22.60651
G1 X120.169 Y151.882 E22.63518
G1 X119.673 Y152.137 E22.663
G1 X119.527 Y152.203 E22.671
G1 X119.022 Y152.423 E22.69848
G1 X118.853 Y152.493 E22.7076
G1 X118.1 Y152.786 E22.74791
G1 X117.96 Y152.838 E22.75537
G1 X117.375 Y153.044 E22.78631
G1 X117.18 Y153.108 E22.79655
G1 X116.407 Y153.342 E22.83684
G1 X116.258 Y153.384 E22.84456
G1 X115.661 Y153.543 E22.87539
G1 X115.472 Y153.589 E22.88509
G1 X114.682 Y153.764 E22.92546
G1 X114.533 Y153.794 E22.93304
G1 X113.924 Y153.908 E22.96395
G1 X113.728 Y153.941 E22.97387
G1 X112.929 Y154.055 E23.01414
G1 X112.776 Y154.074 E23.02183
G1 X112.159 Y154.141 E23.05279
G1 X111.964 Y154.158 E23.06256
G1 X111.159 Y154.211 E23.1028
G1 X111.006 Y154.219 E23.11045
G1 X110.387 Y154.239 E23.14135
G1 X110.198 Y154.241 E23.15078
G1 X109.39 Y154.234 E23.19109
G1 X109.214 Y154.229 E23.19987
G1 X108.596 Y154.2 E23.23074
G1 X108.414 Y154.188 E23.23984
G1 X107.609 Y154.118 E23.28015
G1 X107.449 Y154.101 E23.28818
G1 X106.835 Y154.026 E23.31904
G1 X106.648 Y153.999 E23.32847
G1 X105.85 Y153.868 E23.36881
G1 X105.69 Y153.839 E23.37692
G1 X105.082 Y153.717 E23.40786
G1 X104.898 Y153.676 E23.41727
G1 X104.114 Y153.485 E23.45752
G1 X103.953 Y153.443 E23.46583
G1 X103.358 Y153.275 E23.49667
G1 X103.181 Y153.221 E23.5059
