;FLAVOR:Marlin
;TIME:5705
;Filament used: 3.8666m
;Layer height: 0.1
;MINX:25
;MINY:25
;MINZ:0.3
;MAXX:195
;MAXY:195
;MAXZ:2
;Generated with Cura_SteamEngine 4.7.1
M140 S70
M105
M190 S70
M104 S240
M105
M109 S240
M82 ;absolute extrusion mode
;Sliced at: Sat 07-11-2020 03:05:26
;Basic settings: Layer height: 0.1 Walls: 0.8 Fill: {fill_density} ;Print time: 01:35:05
;Filament used: [3.87]m [12.8343665625]g
;Filament cost: [0.3208591640625]
;M190 S70.0 ;Uncomment to add your own bed temperature line ;M109 S240.0 ;Uncomment to add your own temperature line
G21 ;metric values
G90 ;absolute positioning
M82 ;set extruder to absolute mode
M107 ;start with the fan off
G28 X0 Y0 ;move X/Y to min endstops
G28 Z0 ;move Z to min endstops
G1 Z15.0 F170 ;move the platform down 15mm
G92 E0 ;zero the extruded length
G1 F200 E3 ;extrude 3mm of feed stock
G92 E0 ;zero extrudeed length again
G1 F170
;Put printing message on LCD screen
M117 Printing...
G92 E0
G92 E0
G1 F1500 E-4
;LAYER_COUNT:18
;LAYER:0
M107
G0 F5100 X100.857 Y101.486 Z0.3
;TYPE:SKIRT
G1 F1500 E0
G1 F1800 X101.527 Y100.819 E0.04717
G1 X101.903 Y100.481 E0.07239
G1 X102.313 Y100.148 E0.09874
G1 X102.69 Y99.87 E0.12211
G1 X103.474 Y99.347 E0.16913
G1 X103.908 Y99.088 E0.19434
G1 X104.376 Y98.84 E0.22077
G1 X104.807 Y98.637 E0.24454
G1 X105.678 Y98.277 E0.29156
G1 X106.176 Y98.102 E0.31789
G1 X106.682 Y97.953 E0.34421
G1 X107.116 Y97.845 E0.36652
G1 X108.044 Y97.66 E0.41373
G1 X108.557 Y97.586 E0.43959
G1 X109.082 Y97.537 E0.46589
G1 X109.552 Y97.515 E0.48937
G1 X110.495 Y97.516 E0.53642
G1 X111.003 Y97.542 E0.56179
G1 X111.527 Y97.596 E0.58807
G1 X112.002 Y97.669 E0.61205
G1 X112.93 Y97.856 E0.65928
G1 X113.403 Y97.975 E0.68361
G1 X113.907 Y98.129 E0.7099
G1 X114.367 Y98.295 E0.7343
G1 X115.237 Y98.657 E0.78131
G1 X115.698 Y98.877 E0.8068
G1 X116.163 Y99.129 E0.83318
G1 X116.562 Y99.37 E0.85644
G1 X117.348 Y99.896 E0.90362
G1 X117.753 Y100.197 E0.9288
G1 X118.157 Y100.531 E0.95495
G1 X118.514 Y100.857 E0.97907
G1 X119.181 Y101.527 E1.02624
G1 X119.519 Y101.903 E1.05146
G1 X119.852 Y102.313 E1.07781
G1 X120.13 Y102.69 E1.10118
G1 X120.653 Y103.474 E1.1482
G1 X120.912 Y103.908 E1.17342
G1 X121.16 Y104.376 E1.19984
G1 X121.363 Y104.807 E1.22361
G1 X121.723 Y105.678 E1.27063
G1 X121.898 Y106.176 E1.29696
G1 X122.047 Y106.682 E1.32328
G1 X122.154 Y107.114 E1.34548
G1 X122.339 Y108.04 E1.39259
G1 X122.414 Y108.555 E1.41856
G1 X122.463 Y109.08 E1.44486
G1 X122.485 Y109.55 E1.46834
G1 X122.484 Y110.495 E1.51548
G1 X122.458 Y111.003 E1.54086
G1 X122.404 Y111.527 E1.56714
G1 X122.331 Y112.002 E1.59112
G1 X122.144 Y112.93 E1.63835
G1 X122.026 Y113.4 E1.66252
G1 X121.873 Y113.902 E1.68871
G1 X121.706 Y114.366 E1.71331
G1 X121.343 Y115.238 E1.76043
G1 X121.125 Y115.695 E1.78569
G1 X120.874 Y116.159 E1.81201
G1 X120.631 Y116.562 E1.83549
G1 X120.104 Y117.349 E1.88274
G1 X119.803 Y117.753 E1.90788
G1 X119.469 Y118.157 E1.93403
G1 X119.143 Y118.514 E1.95815
G1 X118.473 Y119.181 E2.00532
G1 X118.097 Y119.519 E2.03054
G1 X117.687 Y119.852 E2.05689
G1 X117.31 Y120.13 E2.08026
G1 X116.526 Y120.653 E2.12728
G1 X116.092 Y120.912 E2.15249
G1 X115.624 Y121.16 E2.17892
G1 X115.193 Y121.363 E2.20269
G1 X114.322 Y121.723 E2.24971
G1 X113.824 Y121.898 E2.27604
G1 X113.318 Y122.047 E2.30236
G1 X112.884 Y122.155 E2.32467
G1 X111.956 Y122.34 E2.37188
G1 X111.443 Y122.414 E2.39774
G1 X110.918 Y122.463 E2.42404
G1 X110.448 Y122.485 E2.44752
G1 X109.505 Y122.484 E2.49457
G1 X108.997 Y122.458 E2.51994
G1 X108.473 Y122.404 E2.54622
G1 X107.998 Y122.331 E2.5702
G1 X107.07 Y122.144 E2.61743
G1 X106.597 Y122.025 E2.64176
G1 X106.093 Y121.871 E2.66805
G1 X105.633 Y121.705 E2.69245
G1 X104.763 Y121.343 E2.73946
G1 X104.302 Y121.123 E2.76495
G1 X103.837 Y120.871 E2.79133
G1 X103.438 Y120.63 E2.81459
G1 X102.652 Y120.104 E2.86177
G1 X102.246 Y119.802 E2.88702
G1 X101.841 Y119.467 E2.91324
G1 X101.485 Y119.142 E2.93729
G1 X100.819 Y118.473 E2.98439
G1 X100.481 Y118.097 E3.00961
G1 X100.148 Y117.687 E3.03596
G1 X99.869 Y117.309 E3.0594
G1 X99.345 Y116.523 E3.10653
G1 X99.087 Y116.091 E3.13163
G1 X98.84 Y115.625 E3.15795
G1 X98.637 Y115.194 E3.18171
G1 X98.276 Y114.321 E3.22885
G1 X98.1 Y113.819 E3.25539
G1 X97.952 Y113.315 E3.28159
G1 X97.845 Y112.884 E3.30375
G1 X97.66 Y111.956 E3.35096
G1 X97.586 Y111.444 E3.37677
G1 X97.537 Y110.921 E3.40297
G1 X97.515 Y110.45 E3.4265
G1 X97.516 Y109.505 E3.47364
G1 X97.542 Y108.997 E3.49902
G1 X97.596 Y108.473 E3.5253
G1 X97.669 Y107.998 E3.54928
G1 X97.856 Y107.07 E3.59651
G1 X97.974 Y106.6 E3.62068
G1 X98.127 Y106.098 E3.64686
G1 X98.294 Y105.634 E3.67147
G1 X98.657 Y104.762 E3.71859
G1 X98.875 Y104.305 E3.74385
G1 X99.126 Y103.841 E3.77017
G1 X99.369 Y103.438 E3.79365
G1 X99.896 Y102.651 E3.8409
G1 X100.197 Y102.247 E3.86604
G1 X100.531 Y101.843 E3.89219
G1 X100.857 Y101.486 E3.91631
G0 F5100 X101.14 Y101.769
G1 F1800 X101.81 Y101.102 E3.96347
G1 X102.155 Y100.791 E3.98665
G1 X102.565 Y100.458 E4.013
G1 X102.912 Y100.202 E4.03451
G1 X103.696 Y99.679 E4.08153
G1 X104.095 Y99.441 E4.10471
G1 X104.563 Y99.193 E4.13113
G1 X104.96 Y99.007 E4.15301
G1 X105.831 Y98.647 E4.20003
G1 X106.289 Y98.485 E4.22426
G1 X106.795 Y98.336 E4.25058
G1 X107.195 Y98.238 E4.27113
G1 X108.123 Y98.053 E4.31833
G1 X108.595 Y97.984 E4.34213
G1 X109.12 Y97.935 E4.36844
G1 X109.552 Y97.915 E4.39001
G1 X110.495 Y97.916 E4.43706
G1 X110.962 Y97.94 E4.46039
G1 X111.486 Y97.994 E4.48667
G1 X111.923 Y98.061 E4.50873
G1 X112.851 Y98.248 E4.55596
G1 X113.286 Y98.358 E4.57834
G1 X113.79 Y98.512 E4.60463
G1 X114.213 Y98.664 E4.62706
G1 X115.083 Y99.026 E4.67407
G1 X115.508 Y99.229 E4.69757
G1 X115.973 Y99.481 E4.72396
G1 X116.339 Y99.702 E4.74529
G1 X117.125 Y100.228 E4.79247
G1 X117.498 Y100.506 E4.81568
G1 X117.902 Y100.84 E4.84183
G1 X118.231 Y101.14 E4.86404
G1 X118.898 Y101.81 E4.91121
G1 X119.209 Y102.155 E4.93438
G1 X119.542 Y102.565 E4.96074
G1 X119.798 Y102.912 E4.98225
G1 X120.321 Y103.696 E5.02927
G1 X120.559 Y104.095 E5.05245
G1 X120.807 Y104.563 E5.07887
G1 X120.993 Y104.96 E5.10074
G1 X121.353 Y105.831 E5.14776
G1 X121.515 Y106.289 E5.172
G1 X121.664 Y106.795 E5.19832
G1 X121.762 Y107.193 E5.21877
G1 X121.947 Y108.119 E5.26588
G1 X122.016 Y108.593 E5.28977
G1 X122.065 Y109.118 E5.31608
G1 X122.085 Y109.55 E5.33766
G1 X122.084 Y110.495 E5.3848
G1 X122.06 Y110.962 E5.40813
G1 X122.006 Y111.486 E5.43441
G1 X121.939 Y111.923 E5.45647
G1 X121.752 Y112.851 E5.5037
G1 X121.643 Y113.283 E5.52593
G1 X121.49 Y113.785 E5.55211
G1 X121.337 Y114.212 E5.57474
G1 X120.974 Y115.084 E5.62186
G1 X120.773 Y115.505 E5.64514
G1 X120.522 Y115.969 E5.67145
G1 X120.298 Y116.339 E5.69303
G1 X119.771 Y117.126 E5.74029
G1 X119.494 Y117.498 E5.76343
G1 X119.16 Y117.902 E5.78958
G1 X118.86 Y118.231 E5.81179
G1 X118.19 Y118.898 E5.85896
G1 X117.845 Y119.209 E5.88213
G1 X117.435 Y119.542 E5.90848
G1 X117.088 Y119.798 E5.93
G1 X116.304 Y120.321 E5.97701
G1 X115.905 Y120.559 E6.00019
G1 X115.437 Y120.807 E6.02662
G1 X115.04 Y120.993 E6.04849
G1 X114.169 Y121.353 E6.09551
G1 X113.711 Y121.515 E6.11975
G1 X113.205 Y121.664 E6.14606
G1 X112.805 Y121.762 E6.16661
G1 X111.877 Y121.947 E6.21382
G1 X111.405 Y122.016 E6.23762
G1 X110.88 Y122.065 E6.26392
G1 X110.448 Y122.085 E6.2855
G1 X109.505 Y122.084 E6.33254
G1 X109.038 Y122.06 E6.35587
G1 X108.514 Y122.006 E6.38216
G1 X108.077 Y121.939 E6.40421
G1 X107.149 Y121.752 E6.45144
G1 X106.714 Y121.642 E6.47383
G1 X106.21 Y121.488 E6.50012
G1 X105.787 Y121.336 E6.52254
G1 X104.917 Y120.974 E6.56955
G1 X104.492 Y120.771 E6.59305
G1 X104.027 Y120.519 E6.61944
G1 X103.661 Y120.298 E6.64077
G1 X102.875 Y119.772 E6.68795
G1 X102.501 Y119.494 E6.7112
G1 X102.096 Y119.159 E6.73743
G1 X101.768 Y118.859 E6.7596
G1 X101.102 Y118.19 E6.8067
G1 X100.791 Y117.845 E6.82987
G1 X100.458 Y117.435 E6.85622
G1 X100.202 Y117.087 E6.87778
G1 X99.678 Y116.301 E6.92491
G1 X99.441 Y115.903 E6.94802
G1 X99.194 Y115.437 E6.97433
G1 X99.007 Y115.041 E6.99618
G1 X98.646 Y114.168 E7.04331
G1 X98.483 Y113.706 E7.06775
G1 X98.335 Y113.202 E7.09396
G1 X98.238 Y112.805 E7.11434
G1 X98.053 Y111.877 E7.16155
G1 X97.984 Y111.407 E7.18525
G1 X97.935 Y110.884 E7.21146
G1 X97.915 Y110.45 E7.23314
G1 X97.916 Y109.505 E7.28028
G1 X97.94 Y109.038 E7.30361
G1 X97.994 Y108.514 E7.32989
G1 X98.061 Y108.077 E7.35195
G1 X98.248 Y107.149 E7.39918
G1 X98.357 Y106.717 E7.42141
G1 X98.51 Y106.215 E7.44759
G1 X98.663 Y105.788 E7.47022
G1 X99.026 Y104.916 E7.51734
G1 X99.227 Y104.495 E7.54062
G1 X99.478 Y104.031 E7.56693
G1 X99.702 Y103.661 E7.58851
G1 X100.229 Y102.874 E7.63577
G1 X100.506 Y102.502 E7.65891
G1 X100.84 Y102.098 E7.68506
G1 X101.14 Y101.769 E7.70727
G0 F5100 X101.422 Y102.052
G1 F1800 X102.092 Y101.385 E7.75444
G1 X102.407 Y101.102 E7.77556
G1 X102.817 Y100.769 E7.80192
G1 X103.134 Y100.535 E7.82157
G1 X103.918 Y100.012 E7.86859
G1 X104.282 Y99.795 E7.88973
G1 X104.75 Y99.547 E7.91616
G1 X105.113 Y99.376 E7.93618
G1 X105.984 Y99.016 E7.9832
G1 X106.402 Y98.869 E8.0053
G1 X106.908 Y98.72 E8.03162
G1 X107.273 Y98.63 E8.05037
G1 X108.201 Y98.445 E8.09758
G1 X108.632 Y98.382 E8.11931
G1 X109.157 Y98.333 E8.14562
G1 X109.551 Y98.315 E8.1653
G1 X110.494 Y98.316 E8.21234
G1 X110.921 Y98.338 E8.23368
G1 X111.445 Y98.392 E8.25996
G1 X111.844 Y98.453 E8.28009
G1 X112.772 Y98.64 E8.32732
G1 X113.169 Y98.74 E8.34775
G1 X113.673 Y98.894 E8.37404
G1 X114.059 Y99.033 E8.39451
G1 X114.929 Y99.395 E8.44152
G1 X115.317 Y99.58 E8.46297
G1 X115.782 Y99.832 E8.48935
G1 X116.117 Y100.034 E8.50887
G1 X116.903 Y100.56 E8.55605
G1 X117.243 Y100.814 E8.57723
G1 X117.647 Y101.148 E8.60338
G1 X117.948 Y101.422 E8.62369
G1 X118.615 Y102.092 E8.67085
G1 X118.898 Y102.407 E8.69198
G1 X119.231 Y102.817 E8.71833
G1 X119.465 Y103.134 E8.73799
G1 X119.988 Y103.918 E8.78501
G1 X120.205 Y104.282 E8.80615
G1 X120.453 Y104.75 E8.83257
G1 X120.624 Y105.113 E8.85259
G1 X120.984 Y105.984 E8.89961
G1 X121.131 Y106.402 E8.92172
G1 X121.28 Y106.908 E8.94803
G1 X121.37 Y107.271 E8.96669
G1 X121.555 Y108.197 E9.0138
G1 X121.618 Y108.63 E9.03563
G1 X121.667 Y109.155 E9.06194
G1 X121.685 Y109.549 E9.08162
G1 X121.684 Y110.494 E9.12876
G1 X121.662 Y110.921 E9.15009
G1 X121.608 Y111.445 E9.17637
G1 X121.547 Y111.844 E9.19651
G1 X121.36 Y112.772 E9.24374
G1 X121.261 Y113.166 E9.26401
G1 X121.108 Y113.668 E9.29019
G1 X120.967 Y114.058 E9.31088
G1 X120.604 Y114.93 E9.358
G1 X120.421 Y115.314 E9.37923
G1 X120.17 Y115.778 E9.40554
G1 X119.966 Y116.117 E9.42528
G1 X119.439 Y116.904 E9.47254
G1 X119.186 Y117.243 E9.49364
G1 X118.852 Y117.647 E9.51979
G1 X118.578 Y117.948 E9.5401
G1 X117.908 Y118.615 E9.58727
G1 X117.593 Y118.898 E9.60839
G1 X117.183 Y119.231 E9.63474
G1 X116.866 Y119.465 E9.6544
G1 X116.082 Y119.988 E9.70142
G1 X115.718 Y120.205 E9.72256
G1 X115.25 Y120.453 E9.74899
G1 X114.887 Y120.624 E9.76901
G1 X114.016 Y120.984 E9.81603
G1 X113.598 Y121.131 E9.83813
G1 X113.092 Y121.28 E9.86445
G1 X112.727 Y121.37 E9.8832
G1 X111.799 Y121.555 E9.93041
G1 X111.368 Y121.618 E9.95214
G1 X110.843 Y121.667 E9.97845
G1 X110.449 Y121.685 E9.99813
G1 X109.506 Y121.684 E10.04517
G1 X109.079 Y121.662 E10.0665
G1 X108.555 Y121.608 E10.09279
G1 X108.156 Y121.547 E10.11292
G1 X107.228 Y121.36 E10.16015
G1 X106.831 Y121.26 E10.18058
G1 X106.327 Y121.106 E10.20687
G1 X105.941 Y120.967 E10.22734
G1 X105.071 Y120.605 E10.27435
G1 X104.683 Y120.42 E10.29579
G1 X104.218 Y120.168 E10.32218
G1 X103.883 Y119.966 E10.3417
G1 X103.097 Y119.44 E10.38888
G1 X102.756 Y119.185 E10.41012
G1 X102.351 Y118.85 E10.43635
G1 X102.051 Y118.577 E10.45658
G1 X101.385 Y117.908 E10.50368
G1 X101.102 Y117.593 E10.52481
G1 X100.769 Y117.183 E10.55116
G1 X100.534 Y116.865 E10.57088
G1 X100.01 Y116.079 E10.61801
G1 X99.794 Y115.716 E10.63909
G1 X99.547 Y115.25 E10.6654
G1 X99.377 Y114.888 E10.68535
G1 X99.016 Y114.015 E10.73248
G1 X98.867 Y113.593 E10.75481
G1 X98.719 Y113.089 E10.78102
G1 X98.63 Y112.727 E10.79962
G1 X98.445 Y111.799 E10.84682
G1 X98.382 Y111.37 E10.86846
G1 X98.333 Y110.847 E10.89466
G1 X98.315 Y110.451 E10.91444
G1 X98.316 Y109.506 E10.96159
G1 X98.338 Y109.079 E10.98292
G1 X98.392 Y108.555 E11.0092
G1 X98.453 Y108.156 E11.02934
G1 X98.64 Y107.228 E11.07657
G1 X98.739 Y106.834 E11.09683
G1 X98.892 Y106.332 E11.12302
G1 X99.033 Y105.942 E11.14371
G1 X99.396 Y105.07 E11.19083
G1 X99.579 Y104.686 E11.21205
G1 X99.83 Y104.222 E11.23837
G1 X100.034 Y103.883 E11.25811
G1 X100.561 Y103.096 E11.30536
G1 X100.814 Y102.757 E11.32647
G1 X101.148 Y102.353 E11.35262
G1 X101.422 Y102.052 E11.37292
G0 F5100 X101.704 Y102.336
G1 F1800 X102.374 Y101.669 E11.42009
G1 X102.659 Y101.412 E11.43924
G1 X103.069 Y101.079 E11.46559
G1 X103.356 Y100.868 E11.48336
G1 X104.14 Y100.345 E11.53038
G1 X104.47 Y100.148 E11.54955
G1 X104.938 Y99.9 E11.57598
G1 X105.265 Y99.746 E11.59401
G1 X106.136 Y99.386 E11.64103
G1 X106.515 Y99.253 E11.66107
G1 X107.021 Y99.104 E11.68738
G1 X107.351 Y99.022 E11.70435
G1 X108.279 Y98.837 E11.75156
G1 X108.669 Y98.78 E11.77122
G1 X109.194 Y98.731 E11.79753
G1 X109.551 Y98.715 E11.81536
G1 X110.494 Y98.716 E11.8624
G1 X110.88 Y98.736 E11.88169
G1 X111.404 Y98.79 E11.90797
G1 X111.765 Y98.845 E11.92619
G1 X112.693 Y99.032 E11.97342
G1 X113.052 Y99.123 E11.99189
G1 X113.556 Y99.277 E12.01818
G1 X113.906 Y99.403 E12.03674
G1 X114.776 Y99.765 E12.08375
G1 X115.127 Y99.932 E12.10315
G1 X115.592 Y100.184 E12.12953
G1 X115.894 Y100.367 E12.14715
G1 X116.68 Y100.893 E12.19434
G1 X116.988 Y101.122 E12.21348
G1 X117.392 Y101.456 E12.23964
G1 X117.664 Y101.704 E12.258
G1 X118.331 Y102.374 E12.30517
G1 X118.588 Y102.659 E12.32431
G1 X118.921 Y103.069 E12.35066
G1 X119.132 Y103.356 E12.36844
G1 X119.655 Y104.14 E12.41545
G1 X119.852 Y104.47 E12.43463
G1 X120.1 Y104.938 E12.46105
G1 X120.254 Y105.265 E12.47908
G1 X120.614 Y106.136 E12.5261
G1 X120.747 Y106.515 E12.54614
G1 X120.896 Y107.021 E12.57246
G1 X120.977 Y107.35 E12.58936
G1 X121.162 Y108.276 E12.63647
G1 X121.22 Y108.667 E12.6562
G1 X121.269 Y109.192 E12.6825
G1 X121.285 Y109.549 E12.70033
G1 X121.284 Y110.494 E12.74748
G1 X121.264 Y110.88 E12.76676
G1 X121.21 Y111.404 E12.79304
G1 X121.155 Y111.765 E12.81126
G1 X120.968 Y112.693 E12.85849
G1 X120.878 Y113.05 E12.87686
G1 X120.725 Y113.552 E12.90304
G1 X120.598 Y113.904 E12.92171
G1 X120.235 Y114.776 E12.96883
G1 X120.069 Y115.124 E12.98807
G1 X119.818 Y115.588 E13.01439
G1 X119.633 Y115.894 E13.03223
G1 X119.106 Y116.681 E13.07948
G1 X118.878 Y116.988 E13.09856
G1 X118.544 Y117.392 E13.12471
G1 X118.296 Y117.664 E13.14307
G1 X117.626 Y118.331 E13.19024
G1 X117.341 Y118.588 E13.20939
G1 X116.931 Y118.921 E13.23574
G1 X116.644 Y119.132 E13.25351
G1 X115.86 Y119.655 E13.30053
G1 X115.53 Y119.852 E13.3197
G1 X115.062 Y120.1 E13.34613
G1 X114.735 Y120.254 E13.36416
G1 X113.864 Y120.614 E13.41118
G1 X113.485 Y120.747 E13.43122
G1 X112.979 Y120.896 E13.45753
G1 X112.649 Y120.978 E13.4745
G1 X111.721 Y121.163 E13.52171
G1 X111.331 Y121.22 E13.54137
G1 X110.806 Y121.269 E13.56768
G1 X110.449 Y121.285 E13.58551
G1 X109.506 Y121.284 E13.63255
G1 X109.12 Y121.264 E13.65184
G1 X108.596 Y121.21 E13.67812
G1 X108.235 Y121.155 E13.69633
G1 X107.307 Y120.968 E13.74356
G1 X106.948 Y120.877 E13.76204
G1 X106.444 Y120.723 E13.78833
G1 X106.094 Y120.597 E13.80689
G1 X105.224 Y120.235 E13.8539
G1 X104.873 Y120.068 E13.8733
G1 X104.408 Y119.816 E13.89968
G1 X104.106 Y119.633 E13.9173
G1 X103.32 Y119.107 E13.96448
G1 X103.011 Y118.877 E13.9837
G1 X102.606 Y118.542 E14.00992
G1 X102.335 Y118.295 E14.02822
G1 X101.669 Y117.626 E14.07531
G1 X101.412 Y117.341 E14.09446
G1 X101.079 Y116.931 E14.12081
G1 X100.867 Y116.643 E14.13865
G1 X100.343 Y115.857 E14.18578
G1 X100.147 Y115.529 E14.20484
G1 X99.9 Y115.063 E14.23116
G1 X99.746 Y114.735 E14.24923
G1 X99.385 Y113.862 E14.29637
G1 X99.251 Y113.481 E14.31652
G1 X99.103 Y112.977 E14.34272
G1 X99.022 Y112.649 E14.35958
G1 X98.837 Y111.721 E14.40679
G1 X98.781 Y111.332 E14.42639
G1 X98.732 Y110.809 E14.4526
G1 X98.715 Y110.451 E14.47048
G1 X98.716 Y109.506 E14.51763
G1 X98.736 Y109.12 E14.53691
G1 X98.79 Y108.596 E14.56319
G1 X98.845 Y108.235 E14.58141
