;FLAVOR:Marlin
;TIME:5396
;Filament used: 3.44783m
;Layer height: 0.1
;MINX:23.506
;MINY:102.876
;MINZ:0.3
;MAXX:196.494
;MAXY:175.746
;MAXZ:2
;Generated with Cura_SteamEngine 4.7.1
M140 S70
M105
M190 S70
M104 S240
M105
M109 S240
M82 ;absolute extrusion mode
;Sliced at: Sat 07-11-2020 20:05:39
;Basic settings: Layer height: 0.1 Walls: 0.8 Fill: {fill_density} ;Print time: 01:29:57
;Filament used: [3.45]m [11.444327871093748]g
;Filament cost: [0.28610819677734367]
;M190 S70.0 ;Uncomment to add your own bed temperature line ;M109 S240.0 ;Uncomment to add your own temperature line
G21 ;metric values
G90 ;absolute positioning
M82 ;set extruder to absolute mode
M107 ;start with the fan off
G28 X0 Y0 ;move X/Y to min endstops
G28 Z0 ;move Z to min endstops
G1 Z15.0 F170 ;move the platform down 15mm
G92 E0 ;zero the extruded length
G1 F200 E3 ;extrude 3mm of feed stock
G92 E0 ;zero extrudeed length again
G1 F170
;Put printing message on LCD screen
M117 Printing...
G92 E0
G92 E0
G1 F2100 E-4
;LAYER_COUNT:18
;LAYER:0
M107
G0 F5100 X29.056 Y107.989 Z0.3
;TYPE:SKIRT
G1 F2100 E0
G1 F1800 X29.81 Y107.79 E0.03891
G1 X30.43 Y107.667 E0.07044
G1 X31.086 Y107.624 E0.10324
G1 X31.872 Y107.624 E0.14245
G1 X32.503 Y107.664 E0.174
G1 X33.145 Y107.789 E0.20663
G1 X33.901 Y107.988 E0.24563
G1 X34.501 Y108.187 E0.27717
G1 X35.145 Y108.503 E0.31296
G1 X35.823 Y108.898 E0.3521
G1 X36.348 Y109.25 E0.38364
G1 X36.74 Y109.593 E0.40962
G1 X37.014 Y109.18 E0.43435
G1 X37.467 Y108.662 E0.46868
G1 X38.023 Y108.108 E0.50784
G1 X38.498 Y107.691 E0.53937
G1 X39.039 Y107.327 E0.57191
G1 X39.715 Y106.934 E0.61092
G1 X40.28 Y106.652 E0.64242
G1 X40.943 Y106.425 E0.67738
G1 X41.699 Y106.224 E0.71641
G1 X42.319 Y106.1 E0.74795
G1 X42.984 Y106.056 E0.7812
G1 X43.772 Y106.056 E0.82052
G1 X44.403 Y106.096 E0.85206
G1 X45.063 Y106.226 E0.88562
G1 X45.815 Y106.427 E0.92446
G1 X46.414 Y106.628 E0.95598
G1 X47.031 Y106.931 E0.99027
G1 X47.709 Y107.324 E1.02937
G1 X48.235 Y107.675 E1.06092
G1 X48.638 Y108.026 E1.08758
G1 X48.919 Y107.605 E1.11283
G1 X49.358 Y107.102 E1.14614
G1 X49.912 Y106.548 E1.18523
G1 X50.387 Y106.131 E1.21676
G1 X50.941 Y105.758 E1.25008
G1 X51.619 Y105.365 E1.28918
G1 X52.184 Y105.083 E1.32068
G1 X52.841 Y104.859 E1.35531
G1 X53.597 Y104.658 E1.39434
G1 X54.217 Y104.534 E1.42589
G1 X54.882 Y104.49 E1.45914
G1 X55.668 Y104.49 E1.49835
G1 X56.299 Y104.53 E1.52989
G1 X56.956 Y104.659 E1.5633
G1 X57.71 Y104.86 E1.60223
G1 X58.309 Y105.061 E1.63375
G1 X58.924 Y105.362 E1.66791
G1 X59.604 Y105.755 E1.70709
G1 X60.13 Y106.105 E1.73861
G1 X60.536 Y106.461 E1.76555
G1 X60.81 Y106.048 E1.79028
G1 X61.256 Y105.536 E1.82416
G1 X61.81 Y104.982 E1.86324
G1 X62.285 Y104.565 E1.89478
G1 X62.839 Y104.192 E1.9281
G1 X63.517 Y103.799 E1.9672
G1 X64.082 Y103.517 E1.9987
G1 X64.736 Y103.294 E2.03317
G1 X65.49 Y103.093 E2.0721
G1 X66.11 Y102.969 E2.10365
G1 X66.778 Y102.924 E2.13705
G1 X67.566 Y102.924 E2.17636
G1 X68.197 Y102.964 E2.20791
G1 X68.854 Y103.093 E2.24131
G1 X69.608 Y103.294 E2.28024
G1 X70.207 Y103.495 E2.31176
G1 X70.827 Y103.799 E2.34621
G1 X71.505 Y104.192 E2.38531
G1 X72.031 Y104.543 E2.41686
G1 X72.527 Y104.976 E2.44971
G1 X73.083 Y105.53 E2.48887
G1 X73.502 Y106.004 E2.52043
G1 X73.885 Y106.574 E2.55469
G1 X74.276 Y107.252 E2.59374
G1 X74.557 Y107.819 E2.62531
G1 X74.773 Y108.449 E2.65854
G1 X74.927 Y109.021 E2.68809
G1 X83.781 Y107.86 E3.1336
G1 X83.946 Y107.462 E3.15509
G1 X84.224 Y106.895 E3.1866
G1 X84.597 Y106.333 E3.22025
G1 X85.074 Y105.711 E3.25936
G1 X85.49 Y105.235 E3.2909
G1 X85.998 Y104.787 E3.32469
G1 X86.621 Y104.309 E3.36386
G1 X87.146 Y103.957 E3.3954
G1 X87.745 Y103.659 E3.42878
G1 X88.464 Y103.36 E3.46763
G1 X89.062 Y103.155 E3.49916
G1 X89.744 Y103.018 E3.53387
G1 X90.526 Y102.917 E3.57321
G1 X91.166 Y102.876 E3.6052
G1 X128.834 Y102.876 E5.48447
G1 X129.474 Y102.917 E5.51646
G1 X130.256 Y103.018 E5.5558
G1 X130.877 Y103.139 E5.58736
G1 X131.536 Y103.36 E5.62204
G1 X132.255 Y103.659 E5.66089
G1 X132.822 Y103.938 E5.69242
G1 X133.379 Y104.309 E5.72581
G1 X134.002 Y104.787 E5.76498
G1 X134.478 Y105.203 E5.79652
G1 X134.926 Y105.711 E5.83031
G1 X135.403 Y106.333 E5.86942
G1 X135.755 Y106.858 E5.90095
G1 X136.054 Y107.462 E5.93458
G1 X136.218 Y107.858 E5.95596
G1 X145.074 Y109.021 E6.40158
G1 X145.224 Y108.46 E6.43055
G1 X145.425 Y107.861 E6.46208
G1 X145.724 Y107.252 E6.49592
G1 X146.115 Y106.574 E6.53497
G1 X146.464 Y106.048 E6.56646
G1 X146.91 Y105.536 E6.60034
G1 X147.464 Y104.982 E6.63943
G1 X147.939 Y104.565 E6.67096
G1 X148.498 Y104.189 E6.70457
G1 X149.178 Y103.796 E6.74376
G1 X149.744 Y103.515 E6.77528
G1 X150.392 Y103.294 E6.80944
G1 X151.146 Y103.093 E6.84837
G1 X151.766 Y102.969 E6.87992
G1 X152.434 Y102.924 E6.91332
G1 X153.222 Y102.924 E6.95263
G1 X153.853 Y102.964 E6.98417
G1 X154.51 Y103.093 E7.01758
G1 X155.264 Y103.294 E7.05651
G1 X155.863 Y103.495 E7.08803
G1 X156.483 Y103.799 E7.12248
G1 X157.161 Y104.192 E7.16158
G1 X157.687 Y104.543 E7.19313
G1 X158.19 Y104.982 E7.22644
G1 X158.744 Y105.536 E7.26552
G1 X159.161 Y106.011 E7.29706
G1 X159.463 Y106.461 E7.32409
G1 X159.83 Y106.136 E7.34855
G1 X160.396 Y105.755 E7.38259
G1 X161.076 Y105.362 E7.42178
G1 X161.642 Y105.081 E7.4533
G1 X162.29 Y104.86 E7.48746
G1 X163.044 Y104.659 E7.52639
G1 X163.664 Y104.535 E7.55793
G1 X164.332 Y104.49 E7.59134
G1 X165.118 Y104.49 E7.63055
G1 X165.749 Y104.53 E7.66209
G1 X166.403 Y104.658 E7.69534
G1 X167.159 Y104.859 E7.73437
G1 X167.758 Y105.06 E7.76589
G1 X168.381 Y105.365 E7.8005
G1 X169.059 Y105.758 E7.83959
G1 X169.585 Y106.109 E7.87114
G1 X170.088 Y106.548 E7.90445
G1 X170.642 Y107.102 E7.94354
G1 X171.059 Y107.577 E7.97507
G1 X171.362 Y108.027 E8.00214
G1 X171.744 Y107.691 E8.02752
G1 X172.285 Y107.327 E8.06005
G1 X172.961 Y106.934 E8.09906
G1 X173.526 Y106.652 E8.13057
G1 X174.186 Y106.426 E8.16537
G1 X174.94 Y106.225 E8.2043
G1 X175.56 Y106.101 E8.23585
G1 X176.228 Y106.056 E8.26925
G1 X177.018 Y106.056 E8.30866
G1 X177.649 Y106.096 E8.3402
G1 X178.306 Y106.225 E8.37361
G1 X179.06 Y106.426 E8.41254
G1 X179.659 Y106.627 E8.44406
G1 X180.285 Y106.934 E8.47885
G1 X180.961 Y107.327 E8.51786
G1 X181.486 Y107.679 E8.54939
G1 X181.984 Y108.114 E8.58238
G1 X182.538 Y108.668 E8.62147
G1 X182.955 Y109.143 E8.653
G1 X183.259 Y109.594 E8.68014
G1 X183.64 Y109.259 E8.70545
G1 X184.177 Y108.898 E8.73773
G1 X184.855 Y108.503 E8.77688
G1 X185.42 Y108.22 E8.8084
G1 X186.099 Y107.988 E8.8442
G1 X186.855 Y107.789 E8.8832
G1 X187.475 Y107.667 E8.91473
G1 X188.128 Y107.624 E8.94738
G1 X188.914 Y107.624 E8.98659
G1 X189.545 Y107.664 E9.01814
G1 X190.19 Y107.79 E9.05092
G1 X190.944 Y107.989 E9.08983
G1 X191.544 Y108.188 E9.12137
G1 X192.179 Y108.5 E9.15666
G1 X192.859 Y108.895 E9.1959
G1 X193.385 Y109.246 E9.22745
G1 X193.884 Y109.682 E9.26051
G1 X194.436 Y110.234 E9.29945
G1 X194.853 Y110.709 E9.33099
G1 X195.229 Y111.268 E9.3646
G1 X195.622 Y111.948 E9.40378
G1 X195.903 Y112.514 E9.43531
G1 X196.124 Y113.16 E9.46937
G1 X196.325 Y113.913 E9.50825
G1 X196.449 Y114.533 E9.5398
G1 X196.494 Y115.203 E9.5733
G1 X196.494 Y115.986 E9.61236
G1 X196.451 Y116.638 E9.64496
G1 X193.707 Y137.489 E10.69419
G1 X193.583 Y138.12 E10.72627
G1 X193.382 Y138.877 E10.76535
G1 X193.181 Y139.477 E10.79692
G1 X192.875 Y140.101 E10.83159
G1 X192.818 Y140.199 E10.83725
G1 X192.859 Y140.223 E10.83962
G1 X193.385 Y140.574 E10.87117
G1 X193.884 Y141.01 E10.90423
G1 X194.436 Y141.562 E10.94317
G1 X194.853 Y142.037 E10.97471
G1 X195.229 Y142.596 E11.00832
G1 X195.622 Y143.276 E11.0475
G1 X195.903 Y143.842 E11.07903
G1 X196.124 Y144.488 E11.11309
G1 X196.325 Y145.241 E11.15197
G1 X196.449 Y145.861 E11.18352
G1 X196.494 Y146.531 E11.21702
G1 X196.494 Y147.314 E11.25608
G1 X196.451 Y147.966 E11.28868
G1 X193.707 Y168.817 E12.33791
G1 X193.583 Y169.448 E12.37
G1 X193.382 Y170.205 E12.40907
G1 X193.181 Y170.805 E12.44064
G1 X192.875 Y171.429 E12.47531
G1 X192.482 Y172.107 E12.51441
G1 X192.131 Y172.633 E12.54596
G1 X191.692 Y173.136 E12.57927
G1 X191.138 Y173.69 E12.61835
G1 X190.663 Y174.107 E12.64989
G1 X190.109 Y174.48 E12.68321
G1 X189.431 Y174.873 E12.72231
G1 X188.866 Y175.155 E12.75381
G1 X188.197 Y175.382 E12.78906
G1 X187.441 Y175.581 E12.82806
G1 X186.821 Y175.703 E12.85958
G1 X186.168 Y175.746 E12.89223
G1 X185.382 Y175.746 E12.93145
G1 X184.751 Y175.706 E12.96299
G1 X184.106 Y175.58 E12.99578
G1 X183.352 Y175.381 E13.03468
G1 X182.752 Y175.182 E13.06622
G1 X182.126 Y174.876 E13.10098
G1 X181.446 Y174.483 E13.14017
G1 X180.92 Y174.133 E13.17169
G1 X180.406 Y173.683 E13.20577
G1 X179.854 Y173.129 E13.24479
G1 X179.437 Y172.654 E13.27632
G1 X179.139 Y172.21 E13.303
G1 X178.758 Y172.545 E13.32831
G1 X178.211 Y172.912 E13.36117
G1 X177.533 Y173.305 E13.40027
G1 X176.968 Y173.587 E13.43177
G1 X176.314 Y173.81 E13.46625
G1 X175.56 Y174.011 E13.50518
G1 X174.94 Y174.135 E13.53672
G1 X174.272 Y174.18 E13.57012
G1 X173.486 Y174.18 E13.60934
G1 X172.855 Y174.14 E13.64088
G1 X172.201 Y174.012 E13.67413
G1 X171.445 Y173.811 E13.71316
G1 X170.846 Y173.61 E13.74468
G1 X170.223 Y173.305 E13.77928
G1 X169.545 Y172.912 E13.81838
G1 X169.019 Y172.561 E13.84993
G1 X168.523 Y172.128 E13.88278
G1 X167.969 Y171.576 E13.9218
G1 X167.55 Y171.102 E13.95336
G1 X167.242 Y170.644 E13.98089
G1 X166.86 Y170.979 E14.00624
G1 X166.319 Y171.343 E14.03877
G1 X165.643 Y171.736 E14.07779
G1 X165.078 Y172.018 E14.10929
G1 X164.427 Y172.242 E14.14364
G1 X163.671 Y172.445 E14.18269
G1 X163.051 Y172.57 E14.21424
G1 X162.374 Y172.616 E14.2481
G1 X161.586 Y172.616 E14.28741
G1 X160.955 Y172.576 E14.31896
G1 X160.286 Y172.444 E14.35298
G1 X159.532 Y172.241 E14.39193
G1 X158.933 Y172.038 E14.42349
G1 X158.325 Y171.739 E14.45729
G1 X157.647 Y171.346 E14.49639
G1 X157.121 Y170.995 E14.52793
G1 X156.618 Y170.556 E14.56124
G1 X156.064 Y170.002 E14.60033
G1 X155.647 Y169.527 E14.63186
G1 X155.346 Y169.078 E14.65883
G1 X154.971 Y169.407 E14.68372
G1 X154.417 Y169.78 E14.71704
G1 X153.739 Y170.173 E14.75614
G1 X153.174 Y170.455 E14.78764
G1 X152.517 Y170.679 E14.82227
G1 X151.761 Y170.88 E14.8613
G1 X151.141 Y171.004 E14.89284
G1 X150.476 Y171.048 E14.92609
G1 X149.688 Y171.048 E14.96541
G1 X149.057 Y171.008 E14.99695
G1 X148.397 Y170.878 E15.03051
G1 X147.645 Y170.677 E15.06935
G1 X147.046 Y170.476 E15.10087
G1 X146.434 Y170.176 E15.13487
G1 X145.754 Y169.783 E15.17406
G1 X145.228 Y169.433 E15.20558
G1 X144.714 Y168.983 E15.23966
G1 X144.162 Y168.429 E15.27868
G1 X143.745 Y167.954 E15.31021
G1 X143.378 Y167.407 E15.34307
G1 X142.985 Y166.729 E15.38217
G1 X142.703 Y166.164 E15.41367
G1 X142.483 Y165.523 E15.44749
G1 X142.28 Y164.77 E15.48639
G1 X142.155 Y164.151 E15.5179
G1 X142.108 Y163.469 E15.55201
G1 X142.108 Y162.679 E15.59142
G1 X142.115 Y162.565 E15.59712
G1 X137.645 Y161.979 E15.82203
G1 X137.227 Y162.284 E15.84785
G1 X136.69 Y162.618 E15.8794
G1 X136.072 Y162.897 E15.91323
G1 X135.595 Y163.075 E15.93863
G1 X134.697 Y163.318 E15.98504
G1 X134.175 Y163.408 E16.01147
G1 X133.587 Y163.474 E16.04099
G1 X132.848 Y163.506 E16.07789
G1 X87.118 Y163.505 E18.35937
G1 X86.771 Y163.493 E18.37669
G1 X86.153 Y163.45 E18.4076
G1 X85.359 Y163.33 E18.44766
G1 X84.817 Y163.203 E18.47544
G1 X84.212 Y163.02 E18.50697
G1 X83.342 Y162.624 E18.55466
G1 X82.792 Y162.314 E18.58616
G1 X82.356 Y161.978 E18.61362
G1 X77.884 Y162.564 E18.83863
G1 X77.892 Y162.679 E18.84439
G1 X77.892 Y163.469 E18.8838
G1 X77.852 Y164.1 E18.91534
G1 X77.723 Y164.759 E18.94884
G1 X77.522 Y165.512 E18.98773
G1 X77.321 Y166.111 E19.01925
G1 X77.017 Y166.729 E19.05361
G1 X76.624 Y167.407 E19.09271
G1 X76.273 Y167.933 E19.12426
G1 X75.834 Y168.436 E19.15756
G1 X75.28 Y168.99 E19.19665
G1 X74.805 Y169.407 E19.22819
G1 X74.246 Y169.783 E19.2618
G1 X73.566 Y170.176 E19.30098
G1 X73 Y170.457 E19.33251
G1 X72.352 Y170.678 E19.36666
G1 X71.598 Y170.879 E19.40559
G1 X70.978 Y171.003 E19.43714
G1 X70.31 Y171.048 E19.47054
G1 X69.524 Y171.048 E19.50975
G1 X68.893 Y171.008 E19.5413
G1 X68.236 Y170.879 E19.5747
G1 X67.482 Y170.678 E19.61363
G1 X66.883 Y170.477 E19.64516
G1 X66.268 Y170.176 E19.67932
G1 X65.588 Y169.783 E19.7185
G1 X65.062 Y169.433 E19.75002
G1 X64.656 Y169.077 E19.77696
G1 X64.382 Y169.49 E19.80169
G1 X63.936 Y170.002 E19.83556
G1 X63.382 Y170.556 E19.87465
G1 X62.907 Y170.973 E19.90618
G1 X62.353 Y171.346 E19.9395
G1 X61.675 Y171.739 E19.9786
G1 X61.11 Y172.021 E20.01011
G1 X60.468 Y172.241 E20.04396
G1 X59.714 Y172.444 E20.08292
G1 X59.094 Y172.57 E20.11448
G1 X58.414 Y172.616 E20.14849
G1 X57.626 Y172.616 E20.1878
G1 X56.995 Y172.576 E20.21934
G1 X56.329 Y172.445 E20.25321
G1 X55.573 Y172.242 E20.29226
G1 X54.974 Y172.04 E20.3238
G1 X54.357 Y171.736 E20.35811
G1 X53.681 Y171.343 E20.39713
G1 X53.156 Y170.991 E20.42866
G1 X52.759 Y170.644 E20.45497
G1 X52.481 Y171.062 E20.48001
G1 X52.031 Y171.576 E20.51409
G1 X51.477 Y172.128 E20.55311
G1 X51.002 Y172.545 E20.58465
G1 X50.455 Y172.912 E20.61751
G1 X49.777 Y173.305 E20.65661
G1 X49.212 Y173.587 E20.68811
G1 X48.555 Y173.811 E20.72274
G1 X47.799 Y174.012 E20.76177
G1 X47.179 Y174.136 E20.79331
G1 X46.514 Y174.18 E20.82656
G1 X45.728 Y174.18 E20.86578
G1 X45.097 Y174.14 E20.89732
G1 X44.44 Y174.011 E20.93072
G1 X43.686 Y173.81 E20.96965
G1 X43.087 Y173.609 E21.00118
G1 X42.467 Y173.305 E21.03563
G1 X41.789 Y172.912 E21.07472
G1 X41.263 Y172.561 E21.10627
G1 X40.861 Y172.21 E21.1329
G1 X40.579 Y172.633 E21.15826
G1 X40.14 Y173.136 E21.19157
G1 X39.586 Y173.69 E21.23066
G1 X39.111 Y174.107 E21.26219
G1 X38.557 Y174.48 E21.29551
G1 X37.879 Y174.873 E21.33461
G1 X37.314 Y175.155 E21.36611
G1 X36.648 Y175.381 E21.4012
G1 X35.894 Y175.58 E21.4401
G1 X35.274 Y175.703 E21.47164
G1 X34.618 Y175.746 E21.50444
G1 X33.83 Y175.746 E21.54375
G1 X33.199 Y175.706 E21.57529
G1 X32.554 Y175.58 E21.60808
G1 X31.8 Y175.381 E21.64699
G1 X31.2 Y175.182 E21.67852
G1 X30.569 Y174.873 E21.71358
G1 X29.891 Y174.48 E21.75267
G1 X29.365 Y174.129 E21.78422
G1 X28.862 Y173.69 E21.81753
G1 X28.308 Y173.136 E21.85662
G1 X27.891 Y172.661 E21.88815
G1 X27.518 Y172.107 E21.92147
G1 X27.125 Y171.429 E21.96057
G1 X26.843 Y170.864 E21.99207
G1 X26.618 Y170.205 E22.02682
G1 X26.417 Y169.448 E22.06589
G1 X26.293 Y168.817 E22.09797
G1 X23.756 Y149.537 E23.06815
G1 X23.549 Y147.973 E23.14686
G1 X23.506 Y147.317 E23.17966
G1 X23.506 Y146.531 E23.21887
G1 X23.546 Y145.9 E23.25041
G1 X23.675 Y145.241 E23.28392
G1 X23.876 Y144.488 E23.3228
G1 X24.077 Y143.889 E23.35432
G1 X24.378 Y143.276 E23.38839
G1 X24.771 Y142.596 E23.42757
G1 X25.121 Y142.07 E23.45909
G1 X25.564 Y141.562 E23.49272
G1 X26.116 Y141.01 E23.53167
G1 X26.591 Y140.593 E23.5632
G1 X27.141 Y140.223 E23.59627
G1 X27.182 Y140.199 E23.59864
G1 X27.125 Y140.101 E23.6043
G1 X26.843 Y139.536 E23.6358
G1 X26.618 Y138.877 E23.67055
G1 X26.417 Y138.12 E23.70962
G1 X26.293 Y137.489 E23.7417
G1 X23.756 Y118.209 E24.71188
G1 X23.549 Y116.645 E24.79059
G1 X23.506 Y115.989 E24.82339
G1 X23.506 Y115.203 E24.8626
G1 X23.546 Y114.572 E24.89414
G1 X23.675 Y113.913 E24.92764
G1 X23.876 Y113.16 E24.96653
G1 X24.077 Y112.561 E24.99805
G1 X24.378 Y111.948 E25.03212
G1 X24.771 Y111.268 E25.0713
G1 X25.121 Y110.742 E25.10282
G1 X25.564 Y110.234 E25.13645
G1 X26.116 Y109.682 E25.1754
G1 X26.591 Y109.265 E25.20693
G1 X27.141 Y108.895 E25.24
G1 X27.821 Y108.5 E25.27924
G1 X28.386 Y108.217 E25.31076
G1 X29.056 Y107.989 E25.34607
G0 F5100 X29.158 Y108.375
G1 F1800 X29.912 Y108.176 E25.38498
G1 X30.507 Y108.061 E25.41521
G1 X31.086 Y108.024 E25.44416
G1 X31.872 Y108.024 E25.48337
G1 X32.477 Y108.064 E25.51362
G1 X33.043 Y108.176 E25.54241
G1 X33.799 Y108.375 E25.58141
G1 X34.374 Y108.567 E25.61165
G1 X34.944 Y108.848 E25.64336
G1 X35.622 Y109.243 E25.6825
G1 X36.124 Y109.582 E25.71272
G1 X36.553 Y109.959 E25.74122
G1 X36.824 Y110.229 E25.7603
G1 X37.011 Y109.906 E25.77892
G1 X37.348 Y109.402 E25.80917
G1 X37.749 Y108.945 E25.8395
G1 X38.305 Y108.391 E25.87866
G1 X38.762 Y107.993 E25.9089
G1 X39.24 Y107.673 E25.93759
G1 X39.916 Y107.28 E25.9766
G1 X40.459 Y107.011 E26.00684
G1 X41.046 Y106.811 E26.03778
G1 X41.802 Y106.61 E26.0768
G1 X42.397 Y106.494 E26.10705
