;FLAVOR:Marlin
;TIME:11551
;Filament used: 6.79017m
;Layer height: 0.1
;MINX:63.7
;MINY:43.7
;MINZ:0.3
;MAXX:155.675
;MAXY:176.3
;MAXZ:4.6
;Generated with Cura_SteamEngine 4.7.1
M140 S65
M105
M190 S65
M104 S240
M105
M109 S240
M82 ;absolute extrusion mode
;Sliced at: Sun 01-11-2020 08:50:46
;Basic settings: Layer height: 0.1 Walls: 0.8 Fill: {fill_density} ;Print time: 03:12:31
;Filament used: [6.79]m [22.538521171875]g
;Filament cost: [0.563463029296875]
;M190 S65 ;Uncomment to add your own bed temperature line ;M109 S240 ;Uncomment to add your own temperature line
G21 ;metric values
G90 ;absolute positioning
M82 ;set extruder to absolute mode
M107 ;start with the fan off
G28 X0 Y0 ;move X/Y to min endstops
G28 Z0 ;move Z to min endstops
G1 Z15.0 F120 ;move the platform down 15mm
G92 E0 ;zero the extruded length
G1 F200 E3 ;extrude 3mm of feed stock
G92 E0 ;zero extrudeed length again
G1 F120
;Put printing message on LCD screen
M117 Printing...
G92 E0
G92 E0
G1 F1500 E-6.5
;LAYER_COUNT:44
;LAYER:0
M107
G0 F3600 X64.323 Y45.533 Z0.3
;TYPE:SKIRT
G1 F1500 E0
G1 F1800 X64.813 Y44.93 E0.03876
G1 X64.93 Y44.813 E0.04702
G1 X65.347 Y44.453 E0.0745
G1 X65.811 Y44.156 E0.10199
G1 X66.314 Y43.93 E0.1295
G1 X66.844 Y43.779 E0.15699
G1 X67.617 Y43.7 E0.19576
G1 X92.383 Y43.7 E1.43134
G1 X92.933 Y43.74 E1.45885
G1 X93.471 Y43.859 E1.48634
G1 X93.986 Y44.055 E1.51383
G1 X94.467 Y44.323 E1.5413
G1 X94.998 Y44.754 E1.57542
G1 X95.347 Y44.453 E1.59842
G1 X95.811 Y44.156 E1.6259
G1 X96.314 Y43.93 E1.65341
G1 X96.844 Y43.779 E1.68091
G1 X97.617 Y43.7 E1.71967
G1 X122.383 Y43.7 E2.95525
G1 X122.933 Y43.74 E2.98277
G1 X123.471 Y43.859 E3.01026
G1 X123.986 Y44.055 E3.03775
G1 X124.467 Y44.323 E3.06522
G1 X125.07 Y44.813 E3.10398
G1 X125.187 Y44.93 E3.11224
G1 X125.535 Y45.333 E3.1388
G1 X125.863 Y44.93 E3.16473
G1 X125.98 Y44.813 E3.17298
G1 X126.397 Y44.453 E3.20046
G1 X126.861 Y44.156 E3.22795
G1 X127.364 Y43.93 E3.25546
G1 X127.894 Y43.779 E3.28296
G1 X128.667 Y43.7 E3.32172
G1 X131.333 Y43.7 E3.45473
G1 X131.883 Y43.74 E3.48224
G1 X132.421 Y43.859 E3.50973
G1 X132.936 Y44.055 E3.53722
G1 X133.417 Y44.323 E3.56469
G1 X134.02 Y44.813 E3.60346
G1 X134.137 Y44.93 E3.61171
G1 X134.497 Y45.347 E3.6392
G1 X134.794 Y45.811 E3.66668
G1 X135.02 Y46.314 E3.69419
G1 X135.171 Y46.844 E3.72169
G1 X135.25 Y47.617 E3.76045
G1 X135.25 Y172.383 E9.98505
G1 X135.21 Y172.933 E10.01257
G1 X135.091 Y173.471 E10.04006
G1 X134.895 Y173.986 E10.06755
G1 X134.627 Y174.467 E10.09502
G1 X134.137 Y175.07 E10.13378
G1 X134.02 Y175.187 E10.14204
G1 X133.603 Y175.547 E10.16952
G1 X133.139 Y175.844 E10.19701
G1 X132.636 Y176.07 E10.22452
G1 X132.106 Y176.221 E10.25201
G1 X131.333 Y176.3 E10.29078
G1 X128.667 Y176.3 E10.42378
G1 X128.117 Y176.26 E10.4513
G1 X127.579 Y176.141 E10.47879
G1 X127.064 Y175.945 E10.50628
G1 X126.583 Y175.677 E10.53375
G1 X125.98 Y175.187 E10.57251
G1 X125.863 Y175.07 E10.58077
G1 X125.515 Y174.667 E10.60733
G1 X125.187 Y175.07 E10.63326
G1 X125.07 Y175.187 E10.64151
G1 X124.653 Y175.547 E10.66899
G1 X124.189 Y175.844 E10.69648
G1 X123.686 Y176.07 E10.72399
G1 X123.156 Y176.221 E10.75149
G1 X122.383 Y176.3 E10.79025
G1 X97.617 Y176.3 E12.02583
G1 X97.067 Y176.26 E12.05334
G1 X96.529 Y176.141 E12.08083
G1 X96.014 Y175.945 E12.10833
G1 X95.533 Y175.677 E12.1358
G1 X95.002 Y175.246 E12.16992
G1 X94.653 Y175.547 E12.19291
G1 X94.189 Y175.844 E12.22039
G1 X93.686 Y176.07 E12.24791
G1 X93.156 Y176.221 E12.2754
G1 X92.383 Y176.3 E12.31417
G1 X67.617 Y176.3 E13.54975
G1 X67.067 Y176.26 E13.57726
G1 X66.529 Y176.141 E13.60475
G1 X66.014 Y175.945 E13.63224
G1 X65.533 Y175.677 E13.65971
G1 X64.93 Y175.187 E13.69847
G1 X64.813 Y175.07 E13.70673
G1 X64.453 Y174.653 E13.73421
G1 X64.156 Y174.189 E13.7617
G1 X63.93 Y173.686 E13.78921
G1 X63.779 Y173.156 E13.8167
G1 X63.7 Y172.383 E13.85547
G1 X63.7 Y47.617 E20.08007
G1 X63.74 Y47.067 E20.10758
G1 X63.859 Y46.529 E20.13507
G1 X64.055 Y46.014 E20.16256
G1 X64.323 Y45.533 E20.19003
G0 F3600 X64.72 Y45.659
G1 F1800 X65.096 Y45.213 E20.21914
G1 X65.213 Y45.096 E20.22739
G1 X65.609 Y44.757 E20.2534
G1 X66.051 Y44.482 E20.27937
G1 X66.531 Y44.278 E20.30539
G1 X67.036 Y44.15 E20.33138
G1 X67.617 Y44.1 E20.36048
G1 X92.383 Y44.1 E21.59606
G1 X92.903 Y44.14 E21.62208
G1 X93.41 Y44.259 E21.64806
G1 X93.893 Y44.454 E21.67404
G1 X94.341 Y44.72 E21.70004
G1 X94.787 Y45.096 E21.72914
G1 X95.001 Y45.326 E21.74482
G1 X95.213 Y45.096 E21.76042
G1 X95.609 Y44.757 E21.78643
G1 X96.051 Y44.482 E21.8124
G1 X96.531 Y44.278 E21.83842
G1 X97.036 Y44.15 E21.86441
G1 X97.617 Y44.1 E21.8935
G1 X122.383 Y44.1 E23.12908
G1 X122.903 Y44.14 E23.1551
G1 X123.41 Y44.259 E23.18109
G1 X123.893 Y44.454 E23.20707
G1 X124.341 Y44.72 E23.23307
G1 X124.787 Y45.096 E23.26217
G1 X124.904 Y45.213 E23.27042
G1 X125.243 Y45.609 E23.29643
G1 X125.518 Y46.051 E23.3224
G1 X125.77 Y45.659 E23.34565
G1 X126.146 Y45.213 E23.37476
G1 X126.263 Y45.096 E23.38301
G1 X126.659 Y44.757 E23.40902
G1 X127.101 Y44.482 E23.43499
G1 X127.581 Y44.278 E23.46101
G1 X128.086 Y44.15 E23.487
G1 X128.667 Y44.1 E23.51609
G1 X131.333 Y44.1 E23.6491
G1 X131.853 Y44.14 E23.67512
G1 X132.36 Y44.259 E23.7011
G1 X132.843 Y44.454 E23.72709
G1 X133.291 Y44.72 E23.75308
G1 X133.737 Y45.096 E23.78219
G1 X133.854 Y45.213 E23.79044
G1 X134.193 Y45.609 E23.81645
G1 X134.468 Y46.051 E23.84242
G1 X134.672 Y46.531 E23.86844
G1 X134.8 Y47.036 E23.89443
G1 X134.85 Y47.617 E23.92352
G1 X134.85 Y172.383 E30.14812
G1 X134.81 Y172.903 E30.17414
G1 X134.691 Y173.41 E30.20013
G1 X134.496 Y173.893 E30.22611
G1 X134.23 Y174.341 E30.25211
G1 X133.854 Y174.787 E30.28121
G1 X133.737 Y174.904 E30.28946
G1 X133.341 Y175.243 E30.31547
G1 X132.899 Y175.518 E30.34144
G1 X132.419 Y175.722 E30.36746
G1 X131.914 Y175.85 E30.39345
G1 X131.333 Y175.9 E30.42255
G1 X128.667 Y175.9 E30.55555
G1 X128.147 Y175.86 E30.58157
G1 X127.64 Y175.741 E30.60756
G1 X127.157 Y175.546 E30.63354
G1 X126.709 Y175.28 E30.65954
G1 X126.263 Y174.904 E30.68864
G1 X126.146 Y174.787 E30.69689
G1 X125.807 Y174.391 E30.7229
G1 X125.532 Y173.949 E30.74887
G1 X125.28 Y174.341 E30.77212
G1 X124.904 Y174.787 E30.80123
G1 X124.787 Y174.904 E30.80948
G1 X124.391 Y175.243 E30.83549
G1 X123.949 Y175.518 E30.86146
G1 X123.469 Y175.722 E30.88748
G1 X122.964 Y175.85 E30.91347
G1 X122.383 Y175.9 E30.94256
G1 X97.617 Y175.9 E32.17814
G1 X97.097 Y175.86 E32.20416
G1 X96.59 Y175.741 E32.23015
G1 X96.107 Y175.546 E32.25613
G1 X95.659 Y175.28 E32.28213
G1 X95.213 Y174.904 E32.31123
G1 X94.999 Y174.674 E32.3269
G1 X94.787 Y174.904 E32.34251
G1 X94.391 Y175.243 E32.36852
G1 X93.949 Y175.518 E32.39449
G1 X93.469 Y175.722 E32.42051
G1 X92.964 Y175.85 E32.4465
G1 X92.383 Y175.9 E32.47559
G1 X67.617 Y175.9 E33.71117
G1 X67.097 Y175.86 E33.73719
G1 X66.59 Y175.741 E33.76317
G1 X66.107 Y175.546 E33.78916
G1 X65.659 Y175.28 E33.81515
G1 X65.213 Y174.904 E33.84426
G1 X65.096 Y174.787 E33.85251
G1 X64.757 Y174.391 E33.87852
G1 X64.482 Y173.949 E33.90449
G1 X64.278 Y173.469 E33.93051
G1 X64.15 Y172.964 E33.9565
G1 X64.1 Y172.383 E33.98559
G1 X64.1 Y47.617 E40.2102
G1 X64.14 Y47.097 E40.23622
G1 X64.259 Y46.59 E40.2622
G1 X64.454 Y46.107 E40.28818
G1 X64.72 Y45.659 E40.31418
G0 F3600 X65.118 Y45.793
G1 F1800 X65.496 Y45.379 E40.34215
G1 X65.869 Y45.062 E40.36657
G1 X66.289 Y44.81 E40.391
G1 X66.744 Y44.63 E40.41542
G1 X67.222 Y44.526 E40.43982
G1 X67.617 Y44.5 E40.45957
G1 X92.383 Y44.5 E41.69515
G1 X92.871 Y44.54 E41.71958
G1 X93.346 Y44.659 E41.74401
G1 X93.795 Y44.853 E41.76841
G1 X94.207 Y45.118 E41.79285
G1 X94.621 Y45.496 E41.82082
G1 X95.001 Y45.974 E41.85129
G1 X95.379 Y45.496 E41.88169
G1 X95.869 Y45.062 E41.91434
G1 X96.289 Y44.81 E41.93878
G1 X96.744 Y44.63 E41.96319
G1 X97.222 Y44.526 E41.9876
G1 X97.617 Y44.5 E42.00735
G1 X122.383 Y44.5 E43.24293
G1 X122.871 Y44.54 E43.26736
G1 X123.346 Y44.659 E43.29179
G1 X123.795 Y44.853 E43.31619
G1 X124.207 Y45.118 E43.34063
G1 X124.621 Y45.496 E43.3686
G1 X124.938 Y45.869 E43.39302
G1 X125.19 Y46.289 E43.41746
G1 X125.37 Y46.744 E43.44187
G1 X125.474 Y47.222 E43.46627
G1 X125.5 Y47.617 E43.48602
G1 X125.5 Y172.383 E49.71062
G1 X125.46 Y172.871 E49.73505
G1 X125.341 Y173.346 E49.75948
G1 X125.147 Y173.795 E49.78388
G1 X124.882 Y174.207 E49.80832
G1 X124.504 Y174.621 E49.83629
G1 X124.131 Y174.938 E49.86071
G1 X123.711 Y175.19 E49.88515
G1 X123.256 Y175.37 E49.90956
G1 X122.778 Y175.474 E49.93397
G1 X122.383 Y175.5 E49.95372
G1 X97.617 Y175.5 E51.1893
G1 X97.129 Y175.46 E51.21372
G1 X96.654 Y175.341 E51.23815
G1 X96.205 Y175.147 E51.26256
G1 X95.793 Y174.882 E51.287
G1 X95.379 Y174.504 E51.31497
G1 X94.999 Y174.026 E51.34543
G1 X94.621 Y174.504 E51.37583
G1 X94.131 Y174.938 E51.40849
G1 X93.711 Y175.19 E51.43293
G1 X93.256 Y175.37 E51.45734
G1 X92.778 Y175.474 E51.48174
G1 X92.383 Y175.5 E51.50149
G1 X67.617 Y175.5 E52.73707
G1 X67.129 Y175.46 E52.7615
G1 X66.654 Y175.341 E52.78593
G1 X66.205 Y175.147 E52.81033
G1 X65.793 Y174.882 E52.83477
G1 X65.379 Y174.504 E52.86274
G1 X65.062 Y174.131 E52.88716
G1 X64.81 Y173.711 E52.9116
G1 X64.63 Y173.256 E52.93601
G1 X64.526 Y172.778 E52.96042
G1 X64.5 Y172.383 E52.98017
G1 X64.5 Y47.617 E59.20477
G1 X64.54 Y47.129 E59.2292
G1 X64.659 Y46.654 E59.25363
G1 X64.853 Y46.205 E59.27803
G1 X65.118 Y45.793 E59.30247
G0 F3600 X65.252 Y46.311
G1 F1800 X65.662 Y45.779 E59.33598
G1 X66.128 Y45.369 E59.36694
G1 X66.523 Y45.142 E59.38967
G1 X66.951 Y44.987 E59.41238
G1 X67.617 Y44.9 E59.44589
G1 X92.383 Y44.9 E60.68147
G1 X92.837 Y44.94 E60.70421
G1 X93.277 Y45.058 E60.72694
G1 X93.689 Y45.252 E60.74966
G1 X94.221 Y45.662 E60.78317
G1 X94.631 Y46.128 E60.81413
G1 X94.858 Y46.523 E60.83686
G1 X95.004 Y46.925 E60.8582
G1 X95.058 Y46.723 E60.86863
G1 X95.252 Y46.311 E60.89135
G1 X95.662 Y45.779 E60.92486
G1 X96.128 Y45.369 E60.95583
G1 X96.523 Y45.142 E60.97855
G1 X96.951 Y44.987 E61.00127
G1 X97.617 Y44.9 E61.03477
G1 X122.383 Y44.9 E62.27036
G1 X122.837 Y44.94 E62.29309
G1 X123.277 Y45.058 E62.31582
G1 X123.689 Y45.252 E62.33854
G1 X124.221 Y45.662 E62.37205
G1 X124.631 Y46.128 E62.40302
G1 X124.858 Y46.523 E62.42574
G1 X125.013 Y46.951 E62.44845
G1 X125.1 Y47.617 E62.48196
G1 X125.1 Y172.383 E68.70656
G1 X125.06 Y172.837 E68.7293
G1 X124.942 Y173.277 E68.75203
G1 X124.748 Y173.689 E68.77475
G1 X124.338 Y174.221 E68.80826
G1 X123.872 Y174.631 E68.83922
G1 X123.477 Y174.858 E68.86195
G1 X123.049 Y175.013 E68.88466
G1 X122.383 Y175.1 E68.91817
G1 X97.617 Y175.1 E70.15375
G1 X97.163 Y175.06 E70.17649
G1 X96.723 Y174.942 E70.19922
G1 X96.311 Y174.748 E70.22194
G1 X95.779 Y174.338 E70.25545
G1 X95.369 Y173.872 E70.28641
G1 X95.142 Y173.477 E70.30914
G1 X94.996 Y173.075 E70.33048
G1 X94.942 Y173.277 E70.34091
G1 X94.748 Y173.689 E70.36363
G1 X94.338 Y174.221 E70.39714
G1 X93.872 Y174.631 E70.42811
G1 X93.477 Y174.858 E70.45084
G1 X93.049 Y175.013 E70.47355
G1 X92.383 Y175.1 E70.50706
G1 X67.617 Y175.1 E71.74264
G1 X67.163 Y175.06 E71.76537
G1 X66.723 Y174.942 E71.7881
G1 X66.311 Y174.748 E71.81082
G1 X65.779 Y174.338 E71.84433
G1 X65.369 Y173.872 E71.8753
G1 X65.142 Y173.477 E71.89803
G1 X64.987 Y173.049 E71.92074
G1 X64.9 Y172.383 E71.95425
G1 X64.9 Y47.617 E78.17885
G1 X64.94 Y47.163 E78.20158
G1 X65.058 Y46.723 E78.22431
G1 X65.252 Y46.311 E78.24703
G0 F3600 X65.651 Y46.426
G1 F1800 X66.061 Y45.944 E78.2786
G1 X66.385 Y45.678 E78.29952
G1 X66.752 Y45.477 E78.32039
G1 X67.152 Y45.35 E78.34133
G1 X67.617 Y45.3 E78.36466
G1 X92.383 Y45.3 E79.60024
G1 X92.8 Y45.34 E79.62114
G1 X93.202 Y45.458 E79.64204
G1 X93.574 Y45.651 E79.66295
G1 X94.056 Y46.061 E79.69452
G1 X94.322 Y46.385 E79.71544
G1 X94.523 Y46.752 E79.73631
G1 X94.65 Y47.152 E79.75725
G1 X94.7 Y47.617 E79.78058
G1 X94.7 Y172.383 E86.00518
G1 X94.66 Y172.8 E86.02608
G1 X94.542 Y173.202 E86.04699
G1 X94.349 Y173.574 E86.06789
G1 X93.939 Y174.056 E86.09946
G1 X93.615 Y174.322 E86.12038
G1 X93.248 Y174.523 E86.14125
G1 X92.848 Y174.65 E86.16219
G1 X92.383 Y174.7 E86.18552
G1 X67.617 Y174.7 E87.42111
G1 X67.2 Y174.66 E87.44201
G1 X66.798 Y174.542 E87.46291
G1 X66.426 Y174.349 E87.48382
G1 X65.944 Y173.939 E87.51539
G1 X65.678 Y173.615 E87.5363
G1 X65.477 Y173.248 E87.55718
G1 X65.35 Y172.848 E87.57811
G1 X65.3 Y172.383 E87.60145
G1 X65.3 Y47.617 E93.82605
G1 X65.34 Y47.2 E93.84695
G1 X65.458 Y46.798 E93.86785
G1 X65.651 Y46.426 E93.88876
G0 F3600 X66.048 Y46.553
G1 F1800 X66.344 Y46.227 E93.91073
G1 X66.639 Y45.989 E93.92964
G1 X66.977 Y45.818 E93.94853
G1 X67.343 Y45.721 E93.96742
G1 X67.617 Y45.7 E93.98113
G1 X92.383 Y45.7 E95.21671
G1 X92.76 Y45.74 E95.23563
G1 X93.12 Y45.858 E95.25453
G1 X93.447 Y46.048 E95.2734
G1 X93.773 Y46.344 E95.29537
G1 X94.011 Y46.639 E95.31428
G1 X94.182 Y46.977 E95.33317
G1 X94.279 Y47.343 E95.35206
G1 X94.3 Y47.617 E95.36577
G1 X94.3 Y172.383 E101.59038
G1 X94.26 Y172.76 E101.60929
G1 X94.142 Y173.12 E101.62819
G1 X93.952 Y173.447 E101.64706
G1 X93.656 Y173.773 E101.66903
G1 X93.361 Y174.011 E101.68794
G1 X93.023 Y174.182 E101.70683
G1 X92.657 Y174.279 E101.72573
G1 X92.383 Y174.3 E101.73944
G1 X67.617 Y174.3 E102.97502
G1 X67.24 Y174.26 E102.99393
G1 X66.88 Y174.142 E103.01283
G1 X66.553 Y173.952 E103.0317
G1 X66.227 Y173.656 E103.05367
G1 X65.989 Y173.361 E103.07258
G1 X65.818 Y173.023 E103.09148
G1 X65.721 Y172.657 E103.11037
G1 X65.7 Y172.383 E103.12408
G1 X65.7 Y47.617 E109.34868
G1 X65.74 Y47.24 E109.36759
G1 X65.858 Y46.88 E109.38649
G1 X66.048 Y46.553 E109.40536
G0 F3600 X66.257 Y46.973
G1 F1800 X66.627 Y46.51 E109.43493
G1 X66.89 Y46.304 E109.4516
G1 X67.194 Y46.165 E109.46827
G1 X67.617 Y46.1 E109.48962
G1 X92.383 Y46.1 E110.7252
G1 X92.715 Y46.14 E110.74189
G1 X93.027 Y46.257 E110.75851
G1 X93.49 Y46.627 E110.78808
G1 X93.696 Y46.89 E110.80475
G1 X93.835 Y47.194 E110.82142
G1 X93.9 Y47.617 E110.84278
G1 X93.9 Y172.383 E117.06738
G1 X93.86 Y172.715 E117.08406
G1 X93.743 Y173.027 E117.10068
G1 X93.373 Y173.49 E117.13025
G1 X93.11 Y173.696 E117.14692
G1 X92.806 Y173.835 E117.1636
G1 X92.383 Y173.9 E117.18495
G1 X67.617 Y173.9 E118.42053
G1 X67.285 Y173.86 E118.43721
G1 X66.973 Y173.743 E118.45384
G1 X66.51 Y173.373 E118.48341
G1 X66.304 Y173.11 E118.50007
G1 X66.165 Y172.806 E118.51675
G1 X66.1 Y172.383 E118.5381
G1 X66.1 Y47.617 E124.7627
G1 X66.14 Y47.285 E124.77939
G1 X66.257 Y46.973 E124.79601
G0 F3600 X66.656 Y47.081
G1 F1800 X66.91 Y46.793 E124.81517
G1 X67.136 Y46.624 E124.82925
G1 X67.4 Y46.524 E124.84333
G1 X67.617 Y46.5 E124.85422
G1 X92.383 Y46.5 E126.0898
G1 X92.662 Y46.54 E126.10387
G1 X92.919 Y46.656 E126.11793
G1 X93.207 Y46.91 E126.13709
G1 X93.376 Y47.136 E126.15117
G1 X93.476 Y47.4 E126.16525
G1 X93.5 Y47.617 E126.17615
G1 X93.5 Y172.383 E132.40075
G1 X93.46 Y172.662 E132.41481
G1 X93.344 Y172.919 E132.42888
G1 X93.09 Y173.207 E132.44803
G1 X92.864 Y173.376 E132.46211
G1 X92.6 Y173.476 E132.4762
G1 X92.383 Y173.5 E132.48709
G1 X67.617 Y173.5 E133.72267
G1 X67.338 Y173.46 E133.73673
G1 X67.081 Y173.344 E133.7508
G1 X66.793 Y173.09 E133.76996
G1 X66.624 Y172.864 E133.78404
G1 X66.524 Y172.6 E133.79812
G1 X66.5 Y172.383 E133.80901
G1 X66.5 Y47.617 E140.03361
G1 X66.54 Y47.338 E140.04768
G1 X66.656 Y47.081 E140.06174
G0 F3600 X66.94 Y47.402
G1 F1800 X67.193 Y47.076 E140.08233
G1 X67.372 Y46.952 E140.09319
G1 X67.617 Y46.9 E140.10569
G1 X92.383 Y46.9 E141.34127
G1 X92.598 Y46.94 E141.35218
G1 X92.924 Y47.193 E141.37277
G1 X93.048 Y47.372 E141.38363
G1 X93.1 Y47.617 E141.39613
G1 X93.1 Y172.383 E147.62073
G1 X93.06 Y172.598 E147.63164
G1 X92.807 Y172.924 E147.65223
G1 X92.628 Y173.048 E147.66309
G1 X92.383 Y173.1 E147.67559
G1 X67.617 Y173.1 E148.91117
G1 X67.402 Y173.06 E148.92208
G1 X67.076 Y172.807 E148.94266
G1 X66.952 Y172.628 E148.95353
G1 X66.9 Y172.383 E148.96602
G1 X66.9 Y47.617 E155.19062
G1 X66.94 Y47.402 E155.20154
G0 F3600 X67.359 Y47.476
G1 F1800 X67.476 Y47.359 E155.20979
G1 X67.617 Y47.3 E155.21742
G1 X92.383 Y47.3 E156.453
G1 X92.524 Y47.359 E156.46062
G1 X92.641 Y47.476 E156.46888
G1 X92.7 Y47.617 E156.4765
G1 X92.7 Y172.383 E162.7011
G1 X92.641 Y172.524 E162.70873
G1 X92.524 Y172.641 E162.71698
G1 X92.383 Y172.7 E162.72461
