;FLAVOR:Marlin
;TIME:2204
;Filament used: 1.60659m
;Layer height: 0.15
;MINX:61.4
;MINY:98.437
;MINZ:0.3
;MAXX:158.579
;MAXY:121.14
;MAXZ:9.15
;Generated with Cura_SteamEngine 4.7.1
M140 S70
M105
M190 S70
M104 S240
M105
M109 S240
M82 ;absolute extrusion mode
;Sliced at: Mon 09-11-2020 15:21:20
;Basic settings: Layer height: 0.15 Walls: 1 Fill: {fill_density} ;Print time: 00:36:45
;Filament used: [1.61]m [5.332746196289062]g
;Filament cost: [0.13331865490722655]
;M190 S70.0 ;Uncomment to add your own bed temperature line ;M109 S240.0 ;Uncomment to add your own temperature line
G21 ;metric values
G90 ;absolute positioning
M82 ;set extruder to absolute mode
M107 ;start with the fan off
G28 X0 Y0 ;move X/Y to min endstops
G28 Z0 ;move Z to min endstops
G1 Z15.0 F170 ;move the platform down 15mm
G92 E0 ;zero the extruded length
G1 F200 E3 ;extrude 3mm of feed stock
G92 E0 ;zero extrudeed length again
G1 F170
;Put printing message on LCD screen
M117 Printing...
G92 E0
G92 E0
G1 F1500 E-4
;LAYER_COUNT:60
;LAYER:0
M107
G0 F5100 X63.506 Y102.334 Z0.3
;TYPE:SKIRT
G1 F1500 E0
G1 F1800 X63.976 Y102.076 E0.02675
G1 X64.706 Y101.833 E0.06513
G1 X64.982 Y101.773 E0.07922
G1 X65.621 Y101.693 E0.11135
G1 X66.244 Y101.681 E0.14244
G1 X71.269 Y101.681 E0.39314
G1 X74.05 Y101.642 E0.5319
G1 X76.779 Y101.526 E0.66817
G1 X79.508 Y101.332 E0.80466
G1 X82.185 Y101.067 E0.93887
G1 X84.924 Y100.717 E1.07663
G1 X87.57 Y100.301 E1.21027
G1 X91.388 Y99.569 E1.40422
G1 X92.147 Y99.408 E1.44292
G1 X92.543 Y99.347 E1.46291
G1 X93.475 Y99.256 E1.50963
G1 X96.165 Y99.019 E1.64436
G1 X96.679 Y98.965 E1.67014
G1 X97.635 Y98.888 E1.71799
G1 X100.978 Y98.563 E1.88556
G1 X101.238 Y98.533 E1.89862
G1 X101.949 Y98.523 E1.93409
G1 X103.025 Y98.614 E1.98797
G1 X103.444 Y98.655 E2.00897
G1 X106.148 Y98.848 E2.14422
G1 X108.875 Y98.965 E2.28039
G1 X111.604 Y99.004 E2.41656
G1 X114.335 Y98.967 E2.55282
G1 X117.066 Y98.852 E2.68919
G1 X119.772 Y98.662 E2.82453
G1 X120.887 Y98.553 E2.88042
G1 X121.48 Y98.507 E2.91009
G1 X121.67 Y98.497 E2.91958
G1 X123.017 Y98.465 E2.98681
G1 X123.244 Y98.448 E2.99816
G1 X124.378 Y98.437 E3.05474
G1 X125.166 Y98.517 E3.09426
G1 X125.41 Y98.57 E3.10671
G1 X126.108 Y98.74 E3.14255
G1 X126.821 Y98.909 E3.17911
G1 X127.563 Y99.095 E3.21728
G1 X130.233 Y99.686 E3.35371
G1 X132.948 Y100.207 E3.49163
G1 X135.613 Y100.641 E3.62634
G1 X138.322 Y101.003 E3.76269
G1 X141.031 Y101.287 E3.89859
G1 X143.725 Y101.493 E4.03338
G1 X146.485 Y101.626 E4.17124
G1 X149.739 Y101.681 E4.33361
G1 X153.848 Y101.681 E4.5386
G1 X154.549 Y101.691 E4.57358
G1 X155.142 Y101.749 E4.60331
G1 X155.617 Y101.859 E4.62763
G1 X156.126 Y102.029 E4.65441
G1 X156.604 Y102.273 E4.68118
G1 X157.154 Y102.684 E4.71543
G1 X157.33 Y102.844 E4.7273
G1 X157.698 Y103.234 E4.75405
G1 X158.005 Y103.673 E4.78078
G1 X158.296 Y104.292 E4.8149
G1 X158.371 Y104.501 E4.82598
G1 X158.514 Y105.018 E4.85274
G1 X158.579 Y105.55 E4.87948
G1 X158.557 Y106.268 E4.91532
G1 X158.485 Y106.799 E4.94205
G1 X158.336 Y107.314 E4.9688
G1 X157.977 Y108.024 E5.00849
G1 X157.845 Y108.226 E5.02053
G1 X157.512 Y108.66 E5.04782
G1 X156.889 Y109.355 E5.09439
G1 X156.384 Y109.898 E5.13139
G1 X155.74 Y110.623 E5.17976
G1 X155.16 Y111.148 E5.21879
G1 X154.499 Y111.626 E5.25949
G1 X153.725 Y112.194 E5.30739
G1 X153.13 Y112.618 E5.34384
G1 X152.671 Y112.896 E5.37061
G1 X151.99 Y113.158 E5.40701
G1 X151.629 Y113.238 E5.42546
G1 X150.266 Y113.467 E5.49442
G1 X147.555 Y113.963 E5.63191
G1 X144.929 Y114.521 E5.76585
G1 X142.144 Y115.197 E5.90883
G1 X141.891 Y115.248 E5.9217
G1 X141.173 Y115.368 E5.95802
G1 X140.739 Y115.432 E5.97991
G1 X139.535 Y115.587 E6.04047
G1 X139.221 Y115.63 E6.05628
G1 X136.484 Y116.045 E6.19439
G1 X133.8 Y116.531 E6.33048
G1 X131.163 Y117.085 E6.46491
G1 X128.476 Y117.731 E6.60278
G1 X125.874 Y118.434 E6.73725
G1 X123.687 Y119.091 E6.85118
G1 X123.628 Y119.104 E6.85419
G1 X122.392 Y119.486 E6.91874
G1 X122.104 Y119.563 E6.93361
G1 X121.406 Y119.716 E6.96926
G1 X119.937 Y120.016 E7.04406
G1 X117.307 Y120.632 E7.17882
G1 X116.772 Y120.773 E7.20643
G1 X115.682 Y121.044 E7.26246
G1 X115.153 Y121.134 E7.28923
G1 X114.55 Y121.14 E7.31932
G1 X113.505 Y121.063 E7.37159
G1 X113.262 Y121.041 E7.38377
G1 X110.526 Y120.827 E7.52068
G1 X107.763 Y120.69 E7.6587
G1 X105.719 Y120.639 E7.76071
G1 X105.366 Y120.634 E7.77832
G1 X102.648 Y120.634 E7.91392
G1 X100.176 Y120.7 E8.03729
G1 X98.913 Y120.748 E8.10035
G1 X97.906 Y120.758 E8.15059
G1 X96.369 Y120.787 E8.22729
G1 X95.839 Y120.799 E8.25374
G1 X95.24 Y120.792 E8.28362
G1 X94.556 Y120.751 E8.31781
G1 X91.823 Y120.625 E8.4543
G1 X89.139 Y120.578 E8.58823
G1 X85.561 Y120.631 E8.76676
G1 X84.783 Y120.656 E8.80559
G1 X84.559 Y120.656 E8.81677
G1 X83.823 Y120.634 E8.8535
G1 X83.623 Y120.624 E8.86349
G1 X83.12 Y120.556 E8.88882
G1 X81.729 Y120.266 E8.95971
G1 X79.781 Y119.843 E9.05916
G1 X78.523 Y119.597 E9.12311
G1 X78.126 Y119.495 E9.14356
G1 X77.069 Y119.16 E9.19888
G1 X74.419 Y118.362 E9.33695
G1 X71.786 Y117.649 E9.47304
G1 X69.152 Y117.016 E9.60819
G1 X66.405 Y116.437 E9.74825
G1 X65.165 Y116.204 E9.8112
G1 X64.754 Y116.119 E9.83214
G1 X64.238 Y115.972 E9.85891
G1 X63.75 Y115.75 E9.88565
G1 X63.285 Y115.458 E9.91305
G1 X62.859 Y115.131 E9.93984
G1 X62.487 Y114.745 E9.96658
G1 X62.088 Y114.188 E10.00077
G1 X61.819 Y113.724 E10.02753
G1 X61.623 Y113.225 E10.05427
G1 X61.476 Y112.571 E10.08771
G1 X61.416 Y112.011 E10.11581
G1 X61.405 Y111.604 E10.13613
G1 X61.403 Y109.723 E10.22997
G1 X61.406 Y108.412 E10.29538
G1 X61.4 Y107.717 E10.33005
G1 X61.403 Y106.648 E10.38338
G1 X61.415 Y105.967 E10.41736
G1 X61.482 Y105.332 E10.44922
G1 X61.534 Y105.069 E10.46259
G1 X61.677 Y104.552 E10.48936
G1 X61.947 Y103.969 E10.52141
G1 X62.243 Y103.501 E10.54904
G1 X62.574 Y103.079 E10.57579
G1 X62.964 Y102.711 E10.60255
G1 X63.506 Y102.334 E10.63548
G0 F5100 X63.725 Y102.67
G1 F1800 X64.169 Y102.428 E10.66071
G1 X64.791 Y102.224 E10.69337
G1 X65.067 Y102.164 E10.70746
G1 X65.635 Y102.093 E10.73602
G1 X66.248 Y102.081 E10.76661
G1 X71.275 Y102.081 E11.01741
G1 X74.073 Y102.041 E11.15701
G1 X76.79 Y101.926 E11.29269
G1 X79.536 Y101.731 E11.43003
G1 X82.242 Y101.463 E11.56569
G1 X84.965 Y101.115 E11.70265
G1 X87.651 Y100.693 E11.8383
G1 X91.488 Y99.957 E12.03322
G1 X92.23 Y99.8 E12.07106
G1 X92.582 Y99.745 E12.08883
G1 X93.51 Y99.654 E12.13535
G1 X96.193 Y99.418 E12.26972
G1 X96.711 Y99.363 E12.29571
G1 X97.708 Y99.283 E12.34561
G1 X101.054 Y98.957 E12.51333
G1 X101.283 Y98.931 E12.52483
G1 X101.915 Y98.921 E12.55637
G1 X102.985 Y99.012 E12.60994
G1 X103.412 Y99.054 E12.63135
G1 X106.136 Y99.248 E12.76759
G1 X108.853 Y99.364 E12.90327
G1 X111.604 Y99.404 E13.04053
G1 X114.356 Y99.366 E13.17784
G1 X117.077 Y99.252 E13.31371
G1 X119.799 Y99.061 E13.44985
G1 X120.991 Y98.945 E13.5096
G1 X121.511 Y98.905 E13.53562
G1 X121.68 Y98.897 E13.54406
G1 X123.016 Y98.865 E13.61073
G1 X123.248 Y98.848 E13.62234
G1 X124.382 Y98.837 E13.67891
G1 X125.082 Y98.908 E13.71402
G1 X125.315 Y98.959 E13.72592
G1 X125.989 Y99.123 E13.76052
G1 X126.724 Y99.296 E13.79819
G1 X127.526 Y99.497 E13.83944
G1 X130.136 Y100.075 E13.97281
G1 X132.846 Y100.595 E14.11048
G1 X135.568 Y101.038 E14.24807
G1 X138.26 Y101.398 E14.38357
G1 X140.998 Y101.685 E14.52092
G1 X143.744 Y101.895 E14.65831
G1 X146.428 Y102.024 E14.79237
G1 X149.791 Y102.081 E14.96018
G1 X153.843 Y102.081 E15.16233
G1 X154.544 Y102.091 E15.19731
G1 X155.07 Y102.143 E15.22368
G1 X155.519 Y102.246 E15.24666
G1 X155.998 Y102.409 E15.27191
G1 X156.445 Y102.645 E15.29713
G1 X156.885 Y102.98 E15.32472
G1 X157.061 Y103.14 E15.33658
G1 X157.407 Y103.509 E15.36182
G1 X157.69 Y103.927 E15.387
G1 X157.92 Y104.427 E15.41446
G1 X157.995 Y104.636 E15.42554
G1 X158.128 Y105.124 E15.45077
G1 X158.182 Y105.627 E15.47601
G1 X158.157 Y106.244 E15.50682
G1 X158.088 Y106.745 E15.53205
G1 X157.94 Y107.228 E15.55725
G1 X157.642 Y107.805 E15.58965
G1 X157.214 Y108.393 E15.62594
G1 X156.553 Y109.129 E15.67529
G1 X156.107 Y109.609 E15.70798
G1 X155.442 Y110.357 E15.75791
G1 X154.925 Y110.824 E15.79267
G1 X154.264 Y111.302 E15.83337
G1 X153.449 Y111.9 E15.8838
G1 X152.898 Y112.292 E15.91754
G1 X152.464 Y112.552 E15.94278
G1 X151.885 Y112.772 E15.97368
G1 X151.563 Y112.844 E15.99014
G1 X150.194 Y113.074 E16.0594
G1 X147.472 Y113.572 E16.19745
G1 X144.816 Y114.137 E16.33292
G1 X142.049 Y114.808 E16.47497
G1 X141.825 Y114.854 E16.48638
G1 X141.113 Y114.973 E16.52239
G1 X140.688 Y115.036 E16.54383
G1 X139.47 Y115.193 E16.6051
G1 X139.17 Y115.234 E16.6202
G1 X136.418 Y115.651 E16.75907
G1 X133.725 Y116.139 E16.89561
G1 X131.052 Y116.7 E17.03187
G1 X128.382 Y117.342 E17.16888
G1 X125.768 Y118.048 E17.30396
G1 X123.572 Y118.708 E17.41836
G1 X123.517 Y118.72 E17.42117
G1 X122.274 Y119.104 E17.48608
G1 X122.018 Y119.172 E17.49929
G1 X121.326 Y119.324 E17.53464
G1 X119.871 Y119.621 E17.60873
G1 X117.177 Y120.252 E17.74677
G1 X116.675 Y120.384 E17.77266
G1 X115.585 Y120.655 E17.8287
G1 X115.086 Y120.738 E17.85394
G1 X114.579 Y120.741 E17.87923
G1 X113.541 Y120.665 E17.93116
G1 X113.266 Y120.64 E17.94493
G1 X110.542 Y120.427 E18.08125
G1 X107.791 Y120.29 E18.21867
G1 X105.725 Y120.239 E18.32177
G1 X105.372 Y120.234 E18.33938
G1 X102.637 Y120.234 E18.47583
G1 X100.205 Y120.299 E18.59721
G1 X98.999 Y120.346 E18.65742
G1 X97.902 Y120.359 E18.71216
G1 X96.359 Y120.387 E18.78915
G1 X95.84 Y120.399 E18.81505
G1 X95.264 Y120.392 E18.84379
G1 X94.624 Y120.354 E18.87578
G1 X91.848 Y120.226 E19.01442
G1 X89.109 Y120.179 E19.15109
G1 X85.553 Y120.231 E19.32852
G1 X84.77 Y120.256 E19.3676
G1 X84.571 Y120.257 E19.37753
G1 X83.835 Y120.235 E19.41426
G1 X83.202 Y120.164 E19.44604
G1 X81.813 Y119.875 E19.51682
G1 X79.835 Y119.446 E19.6178
G1 X78.6 Y119.204 E19.68059
G1 X78.247 Y119.114 E19.69876
G1 X77.178 Y118.775 E19.75471
G1 X74.534 Y117.978 E19.89248
G1 X71.87 Y117.258 E20.03016
G1 X69.23 Y116.623 E20.16563
G1 X66.508 Y116.049 E20.30441
G1 X65.246 Y115.813 E20.36847
G1 X64.835 Y115.728 E20.38941
G1 X64.349 Y115.587 E20.41465
G1 X63.73 Y115.271 E20.44933
G1 X63.504 Y115.123 E20.4628
G1 X63.104 Y114.814 E20.48802
G1 X62.613 Y114.249 E20.52537
G1 X62.418 Y113.963 E20.54263
G1 X62.167 Y113.524 E20.56786
G1 X61.988 Y113.051 E20.5931
G1 X61.869 Y112.497 E20.62136
G1 X61.815 Y111.999 E20.64636
G1 X61.805 Y111.603 E20.66612
G1 X61.803 Y109.724 E20.75986
G1 X61.806 Y108.413 E20.82527
G1 X61.8 Y107.718 E20.85994
G1 X61.802 Y106.655 E20.91298
G1 X61.814 Y105.974 E20.94696
G1 X61.875 Y105.409 E20.97531
G1 X61.927 Y105.146 E20.98868
G1 X62.064 Y104.66 E21.01388
G1 X62.294 Y104.169 E21.04093
G1 X62.575 Y103.724 E21.06718
G1 X62.889 Y103.328 E21.0924
G1 X63.261 Y102.986 E21.11761
G1 X63.725 Y102.67 E21.14561
G1 F1500 E17.14561
G0 F5100 X64.34 Y111.953
G0 X64.72 Y112.885
G0 X65.69 Y113.32
G0 X73.477 Y114.202
G0 X74.692 Y114.018
;TYPE:SUPPORT
G1 F1500 E21.14561
G1 F1800 X74.725 Y113.999 E21.14751
G1 X75.087 Y114.065 E21.16587
G1 X75.105 Y114.089 E21.16737
G1 X74.692 Y114.018 E21.18828
G1 F1500 E17.18828
G0 F5100 X76.149 Y114.715
G0 X77.567 Y114.861
G1 F1500 E21.18828
G1 F1800 X78.003 Y114.6 E21.21363
G1 X78.316 Y114.657 E21.2295
G1 X78.34 Y114.732 E21.23343
G1 X78.826 Y115.287 E21.27023
G1 X79.456 Y115.611 E21.30558
G1 X79.5 Y115.616 E21.30779
G1 X79.207 Y115.835 E21.32604
G1 X77.567 Y114.861 E21.4212
G1 F1500 E17.4212
G0 F5100 X76.726 Y114.828
G0 X65.194 Y113.216
G0 X64.422 Y112.406
G0 X64.34 Y105.968
G0 X64.779 Y104.994
G0 X65.7 Y104.617
G0 X88.008 Y104.618
G0 X90.818 Y107.212
G1 F1500 E21.4212
G1 F1800 X92.236 Y106.332 E21.50446
G1 X92.276 Y106.474 E21.51182
G1 X93.658 Y108.318 E21.62679
G1 X92.398 Y109.098 E21.70072
G1 X92.369 Y109.158 E21.70404
G1 X90.818 Y107.212 E21.82819
G0 F5100 X91.65 Y108
G1 F1800 X93.22 Y108 E21.90652
G0 F5100 X92 Y108.439
G1 F1800 X92 Y106.666 E21.99498
G0 F5100 X95.635 Y104.819
G1 F1800 X96.07 Y104.823 E22.01668
G1 X96.087 Y104.831 E22.01762
G1 X96.521 Y105.122 E22.04369
G1 X96.605 Y105.168 E22.04846
G1 X97.125 Y105.398 E22.07683
G1 X97.205 Y105.426 E22.08106
G1 X97.833 Y105.595 E22.11351
G1 X98.612 Y105.688 E22.15265
G1 X99.256 Y105.683 E22.18478
G1 X100.024 Y105.581 E22.22343
G1 X100.642 Y105.411 E22.25541
G1 X101.2 Y105.162 E22.28589
G1 X101.286 Y105.113 E22.29083
G1 X101.717 Y104.82 E22.31683
G1 X102.877 Y104.819 E22.3747
G1 X103.049 Y104.823 E22.38329
G1 X103.52 Y106.976 E22.49324
G1 X103.239 Y107.131 E22.50925
G1 X102.844 Y106.635 E22.54088
G1 X101.121 Y106.285 E22.6286
G1 X100.606 Y106.248 E22.65436
G1 X100.197 Y106.537 E22.67934
G1 X99.823 Y106.021 E22.71114
G1 X98.481 Y105.75 E22.77944
G1 X97.607 Y105.609 E22.82361
G1 X97.089 Y105.914 E22.8536
G1 X96.782 Y105.478 E22.8802
G1 X96.327 Y105.315 E22.90432
G1 X95.921 Y105.225 E22.92506
G1 X95.635 Y104.819 E22.94984
G1 F1500 E18.94984
G0 F5100 X97.451 Y105.259
G0 X100 Y105.745
G1 F1500 E22.94984
G1 F1800 X100 Y105.992 E22.96216
G0 F5100 X98.767 Y109.182
G1 F1800 X98.904 Y109.284 E22.97068
G1 X99.588 Y109.537 E23.00707
G1 X100.316 Y109.557 E23.0434
G1 X101.019 Y109.348 E23.07999
G1 X101.225 Y109.206 E23.09248
G1 X101.405 Y109.245 E23.10166
G1 X101.531 Y109.392 E23.11132
G1 X100.524 Y109.735 E23.1644
G1 X100.344 Y109.755 E23.17343
G1 X99.882 Y109.772 E23.1965
G1 X99.687 Y109.753 E23.20627
G1 X99.217 Y109.632 E23.23049
G1 X99.054 Y109.582 E23.23899
G1 X98.547 Y109.299 E23.26796
G1 X98.41 Y109.182 E23.27695
G1 X98.767 Y109.182 E23.29476
G1 F1500 E19.29476
G0 F5100 X94.81 Y112.605
G0 X88.772 Y105.022
G0 X88.008 Y104.618
G0 X65.7 Y104.617
G0 X64.779 Y104.994
G0 X64.34 Y105.968
G0 X64.34 Y111.953
G0 X64.72 Y112.885
G0 X83.755 Y117.702
G0 X104.217 Y117.696
G0 X108.232 Y117.508
G0 X110.833 Y117.237
G0 X113.483 Y116.824
G1 F1500 E23.29476
G1 F1800 X113.587 Y116.896 E23.30107
G1 X114.241 Y117.065 E23.33477
G1 X114.852 Y116.989 E23.36549
G1 X114.669 Y117.355 E23.3859
G1 X113.689 Y117.265 E23.435
G1 X113.483 Y116.824 E23.45928
G1 F1500 E19.45928
G0 F5100 X118.314 Y116.233
G0 X119.197 Y115.86
G1 F1500 E23.45928
G1 F1800 X119.479 Y115.482 E23.48281
G1 X119.479 Y115.48 E23.48291
G1 X119.834 Y115.408 E23.50098
G1 X119.941 Y115.53 E23.50908
G1 X120.567 Y115.86 E23.54438
G1 X119.197 Y115.86 E23.61273
G1 F1500 E19.61273
G0 F5100 X121.246 Y115.699
G0 X125.085 Y114.794
G0 X125.974 Y114.28
G1 F1500 E23.61273
G1 F1800 X126.12 Y114.075 E23.62529
G1 X126.121 Y114.071 E23.6255
G1 X126.434 Y114.002 E23.64149
G1 X126.588 Y114.102 E23.65065
G1 X125.974 Y114.28 E23.68254
G1 F1500 E19.68254
G0 F5100 X125.085 Y114.794
G0 X121.246 Y115.699
G0 X117.721 Y116.327
G0 X114.257 Y116.825
G0 X107.602 Y117.572
G0 X104.217 Y117.696
G0 X83.755 Y117.702
G0 X65.194 Y113.216
G0 X64.422 Y112.406
G0 X64.34 Y105.968
G0 X64.779 Y104.994
G0 X65.7 Y104.617
G0 X88.008 Y104.618
G0 X88.772 Y105.022
G0 X93.842 Y111.173
G0 X121.605 Y109.332
G1 F1500 E23.68254
G1 F1800 X120.212 Y109.792 E23.75573
G1 X118.983 Y109.472 E23.81909
G1 X118.637 Y109.182 E23.84161
G1 X118.892 Y109.182 E23.85433
G1 X119.028 Y109.284 E23.86282
G1 X119.713 Y109.537 E23.89925
G1 X120.441 Y109.557 E23.93558
G1 X121.144 Y109.348 E23.97217
G1 X121.35 Y109.206 E23.98465
G1 X121.53 Y109.245 E23.99384
G1 X121.605 Y109.332 E23.99957
G1 F1500 E19.99957
G0 F5100 X123.363 Y107.128
G1 F1500 E23.99957
G1 F1800 X122.966 Y106.635 E24.03115
G1 X120.836 Y106.2 E24.13961
G1 X120.314 Y106.526 E24.17032
G1 X119.949 Y106.022 E24.20136
G1 X117.761 Y105.578 E24.31275
G1 X117.222 Y105.891 E24.34384
G1 X116.837 Y105.397 E24.37509
G1 X116.046 Y105.224 E24.41548
G1 X115.76 Y104.819 E24.44022
G1 X116.132 Y104.819 E24.45878
G1 X116.173 Y104.822 E24.46083
G1 X116.301 Y104.906 E24.46847
G1 X116.813 Y105.21 E24.49818
G1 X116.897 Y105.249 E24.5028
G1 X117.507 Y105.485 E24.53543
G1 X118.188 Y105.635 E24.57022
G1 X118.889 Y105.693 E24.60531
G1 X119.576 Y105.669 E24.63961
G1 X120.208 Y105.568 E24.67154
G1 X120.833 Y105.384 E24.70404
G1 X120.916 Y105.351 E24.7085
G1 X121.464 Y105.088 E24.73882
G1 X121.847 Y104.82 E24.76214
G1 X123.171 Y104.819 E24.8282
G1 X123.182 Y104.858 E24.83022
G1 X123.645 Y106.974 E24.93829
G1 X123.363 Y107.128 E24.95432
G1 F1500 E20.95432
G0 F5100 X120 Y105.869
G1 F1500 E24.95432
