;FLAVOR:Marlin
;TIME:3129
;Filament used: 1.24571m
;Layer height: 0.1
;MINX:87.562
;MINY:122.604
;MINZ:0.3
;MAXX:132.43
;MAXY:179.474
;MAXZ:17.2
;Generated with Cura_SteamEngine 4.7.1
M140 S70
M105
M190 S70
M104 S240
M105
M109 S240
M82 ;absolute extrusion mode
;Sliced at: Sat 07-11-2020 19:51:11
;Basic settings: Layer height: 0.1 Walls: 0.8 Fill: {fill_density} ;Print time: 00:52:09
;Filament used: [1.25]m [4.134883959960938]g
;Filament cost: [0.10337209899902346]
;M190 S70.0 ;Uncomment to add your own bed temperature line ;M109 S240.0 ;Uncomment to add your own temperature line
G21 ;metric values
G90 ;absolute positioning
M82 ;set extruder to absolute mode
M107 ;start with the fan off
G28 X0 Y0 ;move X/Y to min endstops
G28 Z0 ;move Z to min endstops
G1 Z15.0 F170 ;move the platform down 15mm
G92 E0 ;zero the extruded length
G1 F200 E3 ;extrude 3mm of feed stock
G92 E0 ;zero extrudeed length again
G1 F170
;Put printing message on LCD screen
M117 Printing...
G92 E0
G92 E0
G1 F2100 E-4
;LAYER_COUNT:170
;LAYER:0
M107
G0 F5100 X100.442 Y126.17 Z0.3
;TYPE:SKIRT
G1 F2100 E0
G1 F1800 X101.569 Y125.276 E0.07177
G1 X101.962 Y124.994 E0.0959
G1 X103.011 Y124.316 E0.15822
G1 X103.562 Y124.007 E0.18973
G1 X103.9 Y123.86 E0.20812
G1 X105.076 Y123.399 E0.27114
G1 X105.433 Y123.274 E0.29001
G1 X106.654 Y122.899 E0.35373
G1 X107.269 Y122.752 E0.38528
G1 X107.772 Y122.691 E0.41056
G1 X108.512 Y122.639 E0.44757
G1 X108.845 Y122.625 E0.4642
G1 X109.901 Y122.604 E0.51689
G1 X110.104 Y122.604 E0.52702
G1 X111.16 Y122.626 E0.57972
G1 X111.39 Y122.636 E0.5912
G1 X112.211 Y122.691 E0.63225
G1 X112.838 Y122.773 E0.6638
G1 X113.446 Y122.929 E0.69512
G1 X114.576 Y123.279 E0.75413
G1 X114.932 Y123.402 E0.77293
G1 X116.115 Y123.867 E0.83634
G1 X116.688 Y124.135 E0.8679
G1 X117.012 Y124.329 E0.88674
G1 X117.959 Y124.945 E0.9431
G1 X118.542 Y125.363 E0.97889
G1 X119.565 Y126.176 E1.04408
G1 X119.981 Y126.546 E1.07186
G1 X120.605 Y127.167 E1.11578
G1 X120.591 Y127.181 E1.11677
G1 X120.962 Y127.559 E1.14319
G1 X121.521 Y128.247 E1.18742
G1 X121.962 Y128.886 E1.22615
G1 X122.912 Y130.52 E1.32045
G1 X122.929 Y130.545 E1.32196
G1 X123.219 Y131.123 E1.35422
G1 X123.754 Y132.389 E1.42279
G1 X123.983 Y133.058 E1.45807
G1 X124.471 Y134.903 E1.55328
G1 X124.729 Y135.97 E1.60805
G1 X124.993 Y136.021 E1.62146
G1 X125.593 Y136.219 E1.65298
G1 X126.164 Y136.49 E1.68452
G1 X126.696 Y136.832 E1.71607
G1 X127.181 Y137.238 E1.74763
G1 X127.61 Y137.702 E1.77915
G1 X127.978 Y138.216 E1.81069
G1 X128.277 Y138.773 E1.84223
G1 X128.575 Y139.609 E1.88651
G1 X130.506 Y147.084 E2.27168
G1 X130.593 Y147.538 E2.29474
G1 X130.88 Y147.778 E2.31341
G1 X131.31 Y148.242 E2.34497
G1 X131.678 Y148.756 E2.37651
G1 X131.978 Y149.312 E2.40803
G1 X132.206 Y149.902 E2.43958
G1 X132.357 Y150.515 E2.47108
G1 X132.43 Y151.143 E2.50262
G1 X132.423 Y151.775 E2.53416
G1 X132.271 Y152.683 E2.58009
G1 X132.226 Y152.853 E2.58886
G1 X130.413 Y159.886 E2.95121
G1 X130.13 Y160.974 E3.0073
G1 X129.932 Y161.574 E3.03882
G1 X129.661 Y162.145 E3.07035
G1 X129.319 Y162.677 E3.1019
G1 X128.913 Y163.161 E3.13342
G1 X128.45 Y163.591 E3.16495
G1 X127.935 Y163.959 E3.19652
G1 X127.379 Y164.258 E3.22802
G1 X126.789 Y164.485 E3.25956
G1 X126.175 Y164.636 E3.2911
G1 X125.938 Y164.657 E3.30297
G1 X125.557 Y166.231 E3.38377
G1 X125.53 Y166.337 E3.38923
G1 X125.021 Y168.257 E3.48832
G1 X124.792 Y168.925 E3.52356
G1 X124.195 Y170.335 E3.59995
G1 X123.908 Y170.909 E3.63196
G1 X122.817 Y172.776 E3.73985
G1 X122.386 Y173.399 E3.77764
G1 X121.77 Y174.16 E3.82649
G1 X121.404 Y174.565 E3.85372
G1 X120.703 Y175.26 E3.90297
G1 X120.294 Y175.624 E3.93028
G1 X119.15 Y176.533 E4.00318
G1 X118.745 Y176.83 E4.02824
G1 X118.547 Y176.965 E4.04019
G1 X117.478 Y177.657 E4.10373
G1 X116.927 Y177.967 E4.13527
G1 X116.586 Y178.115 E4.15381
G1 X115.275 Y178.629 E4.22407
G1 X114.918 Y178.754 E4.24294
G1 X113.56 Y179.171 E4.31381
G1 X112.945 Y179.318 E4.34536
G1 X112.443 Y179.379 E4.37059
G1 X111.618 Y179.437 E4.41185
G1 X111.278 Y179.451 E4.42882
G1 X110.145 Y179.474 E4.48536
G1 X109.774 Y179.472 E4.50387
G1 X108.719 Y179.45 E4.55652
G1 X108.49 Y179.44 E4.56795
G1 X107.577 Y179.379 E4.6136
G1 X106.95 Y179.297 E4.64515
G1 X106.438 Y179.17 E4.67147
G1 X105.077 Y178.751 E4.74252
G1 X104.715 Y178.626 E4.76162
G1 X103.398 Y178.108 E4.83223
G1 X102.825 Y177.84 E4.86379
G1 X102.501 Y177.646 E4.88263
G1 X101.445 Y176.959 E4.94548
G1 X100.843 Y176.526 E4.98247
G1 X99.704 Y175.621 E5.05505
G1 X99.289 Y175.252 E5.08276
G1 X98.593 Y174.56 E5.13172
G1 X98.607 Y174.545 E5.13275
G1 X98.231 Y174.161 E5.15956
G1 X97.611 Y173.396 E5.20869
G1 X97.175 Y172.765 E5.24695
G1 X96.1 Y170.92 E5.35348
G1 X96.036 Y170.812 E5.35975
G1 X95.802 Y170.332 E5.38639
G1 X95.226 Y168.967 E5.4603
G1 X95.209 Y168.924 E5.46261
G1 X94.978 Y168.256 E5.49787
G1 X94.465 Y166.318 E5.59789
G1 X94.066 Y164.673 E5.68234
G1 X93.45 Y164.554 E5.71364
G1 X92.849 Y164.357 E5.74519
G1 X92.278 Y164.085 E5.77675
G1 X91.746 Y163.744 E5.80827
G1 X91.262 Y163.338 E5.83979
G1 X90.832 Y162.874 E5.87135
G1 X90.465 Y162.36 E5.90286
G1 X90.165 Y161.803 E5.93443
G1 X89.867 Y160.965 E5.9788
G1 X88.835 Y156.97 E6.18465
G1 X88.005 Y153.75 E6.35055
G1 X87.722 Y152.66 E6.40673
G1 X87.603 Y152.039 E6.43828
G1 X87.562 Y151.408 E6.46983
G1 X87.601 Y150.777 E6.50137
G1 X87.72 Y150.156 E6.53291
G1 X87.916 Y149.555 E6.56445
G1 X88.186 Y148.984 E6.59596
G1 X88.526 Y148.451 E6.6275
G1 X88.931 Y147.965 E6.65906
G1 X89.394 Y147.535 E6.69059
G1 X89.495 Y147.085 E6.7136
G1 X91.173 Y140.581 E7.04871
G1 X91.427 Y139.603 E7.09912
G1 X91.624 Y139.003 E7.13063
G1 X91.895 Y138.432 E7.16216
G1 X92.237 Y137.9 E7.19371
G1 X92.642 Y137.415 E7.22524
G1 X93.106 Y136.985 E7.2568
G1 X93.62 Y136.617 E7.28834
G1 X94.177 Y136.317 E7.3199
G1 X94.766 Y136.09 E7.35139
G1 X95.272 Y135.966 E7.37738
G1 X95.559 Y134.783 E7.43811
G1 X96.015 Y133.06 E7.52703
G1 X96.246 Y132.387 E7.56253
G1 X96.783 Y131.121 E7.63114
G1 X97.068 Y130.551 E7.66294
G1 X98.048 Y128.873 E7.75988
G1 X98.478 Y128.251 E7.79761
G1 X99.031 Y127.567 E7.84149
G1 X99.4 Y127.159 E7.86894
G1 X100.03 Y126.535 E7.91318
G1 X100.442 Y126.17 E7.94064
G0 F5100 X100.69 Y126.483
G1 F1800 X101.817 Y125.589 E8.0124
G1 X102.179 Y125.33 E8.03461
G1 X103.228 Y124.652 E8.09693
G1 X103.758 Y124.357 E8.12719
G1 X104.046 Y124.232 E8.14285
G1 X105.222 Y123.771 E8.20587
G1 X105.55 Y123.657 E8.22319
G1 X106.771 Y123.282 E8.28692
G1 X107.362 Y123.142 E8.31722
G1 X107.8 Y123.09 E8.33922
G1 X108.54 Y123.038 E8.37623
G1 X108.853 Y123.025 E8.39186
G1 X109.909 Y123.004 E8.44456
G1 X110.096 Y123.004 E8.45389
G1 X111.152 Y123.026 E8.50658
G1 X111.363 Y123.035 E8.51712
G1 X112.184 Y123.09 E8.55817
G1 X112.785 Y123.171 E8.58843
G1 X113.328 Y123.311 E8.6164
G1 X114.458 Y123.661 E8.67542
G1 X114.786 Y123.774 E8.69273
G1 X115.969 Y124.239 E8.75614
G1 X116.517 Y124.497 E8.78636
G1 X116.794 Y124.664 E8.8025
G1 X117.741 Y125.28 E8.85886
G1 X118.293 Y125.676 E8.89275
G1 X119.316 Y126.489 E8.95795
G1 X119.699 Y126.829 E8.9835
G1 X120.323 Y127.45 E9.02742
G1 X120.651 Y127.811 E9.05175
G1 X121.21 Y128.499 E9.09598
G1 X121.617 Y129.088 E9.1317
G1 X122.58 Y130.744 E9.22727
G1 X122.596 Y130.768 E9.22871
G1 X122.85 Y131.278 E9.25713
G1 X123.385 Y132.544 E9.3257
G1 X123.369 Y132.551 E9.32657
G1 X123.597 Y133.161 E9.35906
G1 X124.058 Y134.902 E9.44891
G1 X124.4 Y136.312 E9.5213
G1 X124.94 Y136.421 E9.54878
G1 X125.514 Y136.618 E9.57906
G1 X126.056 Y136.889 E9.60929
G1 X126.558 Y137.229 E9.63954
G1 X127.011 Y137.632 E9.66979
G1 X127.407 Y138.091 E9.70003
G1 X127.739 Y138.598 E9.73027
G1 X128.002 Y139.144 E9.7605
G1 X128.188 Y139.709 E9.79018
G1 X130.119 Y147.184 E10.17535
G1 X130.225 Y147.748 E10.20398
G1 X130.257 Y147.77 E10.20592
G1 X130.711 Y148.173 E10.23621
G1 X131.107 Y148.631 E10.26641
G1 X131.44 Y149.138 E10.29668
G1 X131.703 Y149.684 E10.32691
G1 X131.893 Y150.26 E10.35717
G1 X132.004 Y150.856 E10.38742
G1 X132.037 Y151.462 E10.41769
G1 X131.989 Y152.066 E10.44792
G1 X131.884 Y152.581 E10.47415
G1 X131.839 Y152.751 E10.48292
G1 X130.026 Y159.785 E10.84532
G1 X129.743 Y160.873 E10.9014
G1 X129.552 Y161.448 E10.93163
G1 X129.287 Y161.994 E10.96191
G1 X128.953 Y162.499 E10.99212
G1 X128.554 Y162.957 E11.02242
G1 X128.1 Y163.358 E11.05264
G1 X127.596 Y163.696 E11.08292
G1 X127.053 Y163.964 E11.11313
G1 X126.479 Y164.159 E11.14337
G1 X125.884 Y164.277 E11.17363
G1 X125.614 Y164.295 E11.18713
G1 X125.168 Y166.137 E11.28169
G1 X124.634 Y168.155 E11.38583
G1 X124.424 Y168.77 E11.41825
G1 X123.827 Y170.18 E11.49464
G1 X123.563 Y170.707 E11.52405
G1 X122.472 Y172.574 E11.63193
G1 X122.075 Y173.147 E11.66671
G1 X121.459 Y173.908 E11.71556
G1 X121.123 Y174.281 E11.7406
G1 X120.422 Y174.976 E11.78985
G1 X120.045 Y175.31 E11.81498
G1 X118.901 Y176.219 E11.88788
G1 X118.33 Y176.63 E11.92298
G1 X117.261 Y177.322 E11.98651
G1 X116.731 Y177.617 E12.01677
G1 X116.44 Y177.743 E12.03259
G1 X115.129 Y178.257 E12.10284
G1 X114.8 Y178.371 E12.12022
G1 X113.442 Y178.788 E12.19109
G1 X112.852 Y178.928 E12.22134
G1 X112.415 Y178.98 E12.2433
G1 X111.59 Y179.038 E12.28456
G1 X111.27 Y179.051 E12.30054
G1 X110.137 Y179.074 E12.35707
G1 X109.782 Y179.072 E12.37479
G1 X108.727 Y179.05 E12.42743
G1 X108.516 Y179.041 E12.43797
G1 X107.603 Y178.98 E12.48362
G1 X107.002 Y178.9 E12.51387
G1 X106.456 Y178.758 E12.54201
G1 X105.195 Y178.369 E12.60785
G1 X104.861 Y178.254 E12.62547
G1 X103.544 Y177.736 E12.69608
G1 X102.996 Y177.477 E12.72632
G1 X102.72 Y177.311 E12.74239
G1 X101.664 Y176.624 E12.80524
G1 X101.091 Y176.213 E12.84042
G1 X99.952 Y175.308 E12.913
G1 X99.571 Y174.968 E12.93847
G1 X98.875 Y174.276 E12.98744
G1 X98.541 Y173.909 E13.0122
G1 X97.921 Y173.144 E13.06132
G1 X97.52 Y172.564 E13.0965
G1 X96.445 Y170.719 E13.20303
G1 X96.171 Y170.176 E13.23338
G1 X95.578 Y168.768 E13.3096
G1 X95.557 Y168.725 E13.31199
G1 X95.365 Y168.154 E13.34204
G1 X94.852 Y166.216 E13.44206
G1 X94.386 Y164.294 E13.54073
G1 X94.097 Y164.274 E13.55518
G1 X93.503 Y164.154 E13.58541
G1 X92.929 Y163.957 E13.61569
G1 X92.387 Y163.686 E13.64592
G1 X91.885 Y163.347 E13.67614
G1 X91.431 Y162.944 E13.70643
G1 X91.035 Y162.485 E13.73667
G1 X90.703 Y161.978 E13.76691
G1 X90.44 Y161.431 E13.79719
G1 X90.254 Y160.865 E13.82691
G1 X89.222 Y156.87 E14.03277
G1 X88.391 Y153.64 E14.19916
G1 X88.11 Y152.559 E14.25488
G1 X87.996 Y151.963 E14.28516
G1 X87.962 Y151.358 E14.31539
G1 X88.008 Y150.753 E14.34566
G1 X88.133 Y150.16 E14.37589
G1 X88.335 Y149.589 E14.40611
G1 X88.61 Y149.048 E14.43639
G1 X88.954 Y148.549 E14.46662
G1 X89.361 Y148.099 E14.4969
G1 X89.778 Y147.745 E14.52419
G1 X89.882 Y147.185 E14.5526
G1 X91.56 Y140.682 E14.88766
G1 X91.814 Y139.704 E14.93808
G1 X92.004 Y139.128 E14.96834
G1 X92.269 Y138.583 E14.99857
G1 X92.603 Y138.077 E15.02882
G1 X93.001 Y137.619 E15.05909
G1 X93.456 Y137.218 E15.08935
G1 X93.959 Y136.88 E15.11958
G1 X94.503 Y136.611 E15.14986
G1 X95.077 Y136.416 E15.1801
G1 X95.599 Y136.313 E15.20665
G1 X95.946 Y134.885 E15.27996
G1 X96.402 Y133.162 E15.36888
G1 X96.614 Y132.543 E15.40153
G1 X97.151 Y131.277 E15.47014
G1 X97.414 Y130.753 E15.49939
G1 X98.394 Y129.075 E15.59633
G1 X98.789 Y128.503 E15.63101
G1 X99.342 Y127.819 E15.6749
G1 X99.682 Y127.443 E15.70019
G1 X100.312 Y126.819 E15.74443
G1 X100.69 Y126.483 E15.76966
G0 F5100 X100.939 Y126.797
G1 F1800 X102.066 Y125.903 E15.84143
G1 X102.396 Y125.666 E15.8617
G1 X103.445 Y124.988 E15.92401
G1 X104.192 Y124.605 E15.96589
G1 X105.368 Y124.144 E16.02891
G1 X105.668 Y124.039 E16.04477
G1 X106.889 Y123.664 E16.10849
G1 X107.453 Y123.533 E16.13738
G1 X107.828 Y123.489 E16.15622
G1 X108.568 Y123.437 E16.19322
G1 X108.86 Y123.425 E16.20781
G1 X109.916 Y123.404 E16.2605
G1 X110.087 Y123.404 E16.26903
G1 X111.143 Y123.426 E16.32173
G1 X111.337 Y123.434 E16.33141
G1 X112.158 Y123.489 E16.37246
G1 X113.001 Y123.633 E16.41513
G1 X113.21 Y123.693 E16.42598
G1 X114.34 Y124.043 E16.485
G1 X114.639 Y124.146 E16.50078
G1 X115.822 Y124.611 E16.56419
G1 X116.576 Y124.999 E16.6065
G1 X117.523 Y125.615 E16.66286
G1 X118.044 Y125.989 E16.69486
G1 X119.067 Y126.802 E16.76005
G1 X119.417 Y127.113 E16.78341
G1 X120.041 Y127.734 E16.82733
G1 X120.341 Y128.064 E16.84958
G1 X120.9 Y128.752 E16.8938
G1 X121.271 Y129.289 E16.92637
G1 X122.234 Y130.945 E17.02194
G1 X122.482 Y131.434 E17.04929
G1 X123.017 Y132.7 E17.11786
G1 X123.004 Y132.706 E17.11858
G1 X123.21 Y133.263 E17.14821
G1 X123.693 Y135.091 E17.24253
G1 X124.078 Y136.684 E17.3243
G1 X124.318 Y136.701 E17.3363
G1 X124.885 Y136.821 E17.36522
G1 X125.43 Y137.018 E17.39413
G1 X125.942 Y137.287 E17.42298
G1 X126.413 Y137.625 E17.4519
G1 X126.833 Y138.025 E17.48084
G1 X127.193 Y138.478 E17.50971
G1 X127.488 Y138.977 E17.53863
G1 X127.712 Y139.511 E17.56752
G1 X127.801 Y139.81 E17.58308
G1 X129.732 Y147.285 E17.96826
G1 X129.837 Y147.854 E17.99712
G1 X129.843 Y147.973 E18.00307
G1 X130.113 Y148.167 E18.01965
G1 X130.533 Y148.566 E18.04856
G1 X130.894 Y149.019 E18.07745
G1 X131.189 Y149.517 E18.10633
G1 X131.413 Y150.051 E18.13522
G1 X131.562 Y150.611 E18.16413
G1 X131.631 Y151.186 E18.19303
G1 X131.621 Y151.766 E18.22197
G1 X131.497 Y152.479 E18.25807
G1 X131.452 Y152.649 E18.26685
G1 X129.639 Y159.684 E18.62929
G1 X129.356 Y160.772 E18.68538
G1 X129.172 Y161.322 E18.71431
G1 X128.914 Y161.84 E18.74318
G1 X128.587 Y162.319 E18.77212
G1 X128.197 Y162.747 E18.80101
G1 X127.752 Y163.118 E18.82991
G1 X127.261 Y163.425 E18.8588
G1 X126.731 Y163.66 E18.88773
G1 X126.175 Y163.821 E18.9166
G1 X125.601 Y163.904 E18.94554
G1 X125.294 Y163.915 E18.96086
G1 X124.757 Y166.132 E19.07467
G1 X124.248 Y168.052 E19.17377
G1 X124.056 Y168.614 E19.2034
G1 X123.459 Y170.024 E19.27979
G1 X123.217 Y170.505 E19.30665
G1 X122.126 Y172.372 E19.41453
G1 X121.765 Y172.896 E19.44628
G1 X121.149 Y173.657 E19.49513
G1 X120.841 Y173.997 E19.51801
G1 X120.14 Y174.692 E19.56726
G1 X119.796 Y174.997 E19.5902
G1 X118.652 Y175.906 E19.6631
G1 X118.112 Y176.294 E19.69627
G1 X117.043 Y176.986 E19.7598
G1 X116.294 Y177.37 E19.80179
G1 X114.983 Y177.884 E19.87205
G1 X114.683 Y177.989 E19.88791
G1 X113.325 Y178.406 E19.95878
G1 X112.761 Y178.537 E19.98767
G1 X112.387 Y178.581 E20.00645
G1 X111.562 Y178.639 E20.04771
G1 X111.262 Y178.651 E20.06269
G1 X110.129 Y178.674 E20.11923
G1 X109.79 Y178.672 E20.13614
G1 X108.735 Y178.65 E20.18879
G1 X108.543 Y178.642 E20.19838
G1 X107.63 Y178.581 E20.24403
G1 X107.056 Y178.502 E20.27293
G1 X106.574 Y178.375 E20.2978
G1 X105.412 Y178.016 E20.35848
G1 X105.008 Y177.882 E20.37971
G1 X103.691 Y177.364 E20.45032
G1 X102.938 Y176.976 E20.49258
G1 X101.882 Y176.289 E20.55543
G1 X101.34 Y175.899 E20.58875
G1 X100.201 Y174.994 E20.66132
G1 X99.853 Y174.684 E20.68458
G1 X99.157 Y173.992 E20.73354
G1 X98.852 Y173.657 E20.75614
G1 X98.232 Y172.892 E20.80527
G1 X97.866 Y172.362 E20.8374
G1 X96.791 Y170.517 E20.94394
G1 X96.539 Y170.021 E20.97169
G1 X95.945 Y168.613 E21.04793
G1 X95.752 Y168.052 E21.07753
G1 X95.239 Y166.114 E21.17755
G1 X94.707 Y163.915 E21.29042
G1 X94.124 Y163.874 E21.31958
G1 X93.558 Y163.754 E21.34845
G1 X93.013 Y163.558 E21.37734
G1 X92.5 Y163.288 E21.40626
G1 X92.029 Y162.95 E21.43519
G1 X91.61 Y162.551 E21.46405
G1 X91.249 Y162.097 E21.49299
G1 X90.954 Y161.599 E21.52187
G1 X90.731 Y161.064 E21.55078
G1 X90.641 Y160.765 E21.56636
G1 X88.778 Y153.541 E21.93856
G1 X88.497 Y152.458 E21.99438
G1 X88.39 Y151.889 E22.02327
G1 X88.363 Y151.31 E22.05218
G1 X88.416 Y150.733 E22.08109
G1 X88.547 Y150.169 E22.10998
G1 X88.755 Y149.629 E22.13885
G1 X89.036 Y149.122 E22.16777
G1 X89.383 Y148.658 E22.19667
G1 X89.791 Y148.247 E22.22557
G1 X90.152 Y147.972 E22.24821
G1 X90.269 Y147.285 E22.28298
G1 X91.947 Y140.782 E22.61804
G1 X92.201 Y139.804 E22.66845
G1 X92.385 Y139.255 E22.69734
G1 X92.643 Y138.736 E22.72625
G1 X92.969 Y138.258 E22.75512
G1 X93.359 Y137.829 E22.78404
G1 X93.804 Y137.458 E22.81295
G1 X94.295 Y137.151 E22.84184
G1 X94.824 Y136.915 E22.87074
G1 X95.381 Y136.754 E22.89966
G1 X95.923 Y136.676 E22.92698
G1 X96.333 Y134.987 E23.0137
G1 X96.789 Y133.264 E23.10262
G1 X96.982 Y132.699 E23.1324
G1 X97.519 Y131.433 E23.20101
